!!!!SEGMENT: pl-wn--bj-muz-8812-iii--001_zelenski-wladyslaw--sonate-op-20-allegro-con-moto.krn
!!!cenid: 18xx:3691
!!!COM: Żeleński, Władysław
!!!COM-rismid: pe41024455
!!!CDT:
!!!CNT:
!!!OPR: Sonate op. 20
!!!OTL: Allegro con moto
!!!OMV: 001
!!!PDT:
!!!AGN:
!!!SMS-siglum: PL-Wn
!!!SMS-shelfmark: BJ Muz. 8812 III
!!!SMS-shelfwork: M
!!!SMS-variant:
!!!SMS-altvar:
!!!NIFC-rismid:
!!!URL-scan: https://polona.pl/item/sonate-fur-pianoforte-op-20,ODQ3MjQzNDE/0/#item
!!!ONB-nifc: UWAGA: części Sonaty: 1. Allegro con moto, 2. Adagio, 3. Scherzo, 4. Allegro moderato
!!!key: e
!!!OMD: Allegro con moto.  [quarter]=120.
**kern	**dynam	**fing	**kern	**dynam	**fing
*part1	*part1	*part1	*part1	*part1	*part1
*staff2	*staff2	*staff2	*staff1	*	*staff1
*	*	*	*ICklav	*	*
*	*	*	*Ipiano	*	*
*	*	*	*I"[Pianoforte]	*	*
*I'	*	*	*I'	*	*
*>[A,A1,A,A2,B]	*	*	*>[A,A1,A,A2,B]	*	*
*clefF4	*	*	*clefG2	*	*
*k[f#]	*	*	*k[f#]	*	*
*e:	*	*	*e:	*	*
*M4/4	*	*	*M4/4	*	*
*met(c)	*	*	*met(c)	*	*
*MM120	*	*	*MM120	*	*
=1	=1	=1	=1	=1	=1
*>A	*	*	*>A	*	*
!	!LO:DY:rj	!	!	!	!
8EE/	sf	.	16r	.	sf
.	.	.	(16ff#\LL	p	.
8r	.	.	16gg\	.	.
.	.	.	16ccc\JJ	.	.
4r	.	.	16bb\LL	.	.
.	.	.	16gg\	.	.
.	.	.	16ee\	.	.
.	.	.	16b\JJ)	.	.
16r	.	.	(8g/	.	.
(16e\LL	.	.	.	.	.
16c\	.	.	4f#/)	<	.
16B\JJ	.	.	.	.	.
16A\LL	.	.	.	.	.
16d#X\	.	.	.	.	.
16c\	.	.	(8cc\	.	.
16A\JJ	.	.	.	.	.
=2	=2	=2	=2	=2	=2
16G\LL	.	.	8b\L	.	.
16B\	.	.	.	.	.
16d#X\	.	.	8dd#X\	.	.
16B\JJ	.	.	.	.	.
16f#\LL	.	.	8.ff#\	.	.
16B\	.	.	.	.	.
16e\	.	.	.	.	.
16B\JJ	.	.	16ee\Jk)	[	.
16F#\LL	.	.	(8ee\	>	.
16A\	.	.	.	.	.
16d#\	.	.	4dd#\)	.	.
16A\JJ	.	.	.	.	.
16B\LL	.	.	.	]	.
16A\	.	.	.	.	.
16B\	.	.	[8b\	.	.
16A\JJ)	.	.	.	.	.
=3	=3	=3	=3	=3	=3
(16G\LL	.	.	8b\]	.	.
16B\	.	.	.	.	.
!	!	!	!LO:TX:b:i:t=espressivo	!	!
16G\	.	.	(>4e/ 4ee	.	.
16B\JJ	.	.	.	.	.
16F#\LL	.	.	.	.	.
16A\	.	.	.	.	.
16F#\	.	.	4d#X/ 4dd#X	.	.
16A\JJ	.	.	.	.	.
16Fn\LL	.	.	.	.	.
16A\	.	.	.	.	.
16F\	.	.	4dn/ 4ddn	.	.
16A\JJ	.	.	.	.	.
16E\LL	.	.	.	.	.
16G\	.	.	.	.	.
16E\	.	.	[8c#X/ [8cc#X	.	.
16G\JJ)	.	.	.	.	.
=4	=4	=4	=4	=4	=4
!!linebreak:original
(16E\LL	.	.	8c#/] 8cc#]	.	.
16G\	.	.	.	.	.
16E\	.	.	4cn/ 4ccn	.	.
16G\JJ	.	.	.	.	.
16E\LL	.	.	.	.	.
16G\	.	.	.	.	.
16E\	.	.	4A#X/ 4a#X	.	.
16G\JJ	.	.	.	.	.
16D#X\LL	.	.	.	.	.
16F#\	.	.	.	.	.
16G\	.	.	4B/) 4b	.	.
16A\JJ	.	.	.	.	.
16G\LL	.	.	.	.	.
16F#\	.	.	.	.	.
16E\	.	.	[8an\ [8aa	.	.
16D#\JJ	.	.	.	.	.
=5	=5	=5	=5	=5	=5
8E\)	.	.	16a\LL] 16aa]	.	.
!	!	!	!LO:TX:b:i:t=	!LO:HP:t=crescendo un poco	!
.	.	.	(16ff#\	<	.
8r	.	.	16gg\	.	.
.	.	.	16ccc\JJ	.	.
4r	.	.	16bb\LL	.	.
.	.	.	16gg\	.	.
.	.	.	16ee\	.	.
.	.	.	16b\JJ)	.	.
16r	.	.	(8g/	.	.
(16G\LL	.	.	.	.	.
16A\	.	.	4f#/)	.	.
16c\JJ	.	.	.	.	.
16B\LL	.	.	.	.	.
16A\	.	.	.	.	.
16G\	.	.	((8d#X/ 8cc	.	.
16F#\JJ	.	.	.	.	.
=6	=6	=6	=6	=6	=6
8G\)	.	.	16e\LL)) 16b	.	.
.	.	.	(16ff#\	.	.
8r	.	.	16gg\	.	.
.	.	.	16ccc\JJ	.	.
4r	.	.	16bb\LL	.	.
.	.	.	16gg\	.	.
.	.	.	16ee\	.	.
.	.	.	16b\JJ)	.	.
*clefG2	*	*	*	*	*
16r	.	.	(8b\	.	.
(16d/LL	.	.	.	.	.
16e/	.	.	4a#X/)	.	.
16g/JJ	.	.	.	.	.
16f#/LL	.	.	.	.	.
16e/	.	.	.	.	.
16d/	.	.	(8a#\ 8gg	.	.
16c#X/JJ)	.	.	.	.	.
=7	=7	=7	=7	=7	=7
!!linebreak:original
(<16d/LL	.	.	8b\) 8ff#	.	.
16f#/	.	.	.	.	.
16d/	.	.	(4ff#^\ 4fff#	.	.
16f#/JJ	.	.	.	.	.
16c#X/LL	.	5	.	.	.
16g#X/	.	1	.	.	.
16c#/	.	.	4ee#X\ 4eee#X	.	.
16g#/JJ	.	.	.	.	.
16f#/LL	.	4	.	.	.
16a#X/	.	2	.	.	.
16f#/	.	.	4een\ 4eeen	.	.
16a#/JJ	.	.	.	.	.
16gn/LL	.	3	.	.	.
16b/	.	1	.	.	.
16f#/	.	.	[8dd\ [8ddd	.	.
16an/JJ	.	.	.	.	.
=8	=8	=8	=8	=8	=8
16e/LL	.	.	8dd\L]) 8ddd]	.	.
16g/	.	.	.	.	.
16e/	.	.	(8ccn'\ 8cccn	.	.
16g/JJ	.	.	.	>	.
16d/LL	.	4	8b'\ 8bb	.	.
16f#/	.	2	.	.	.
16c#X/	.	5	8a#X'\J 8aa#X	.	.
16e/JJ	.	1	.	.	.
16d#X\LL) 16f#	.	4 2	8b\) 8bb	]	.
*clefF4	*	*	*	*	*
(16B\	>	.	.	.	.
16A\	.	.	8r	.	.
16cn\JJ	.	.	.	.	.
16B\LL	.	.	4r	.	.
16A\	.	.	.	.	.
16G\	.	.	.	.	.
16F#\JJ	.	.	.	.	.
=9	=9	=9	=9	=9	=9
8E\)	]	.	16r	.	.
.	.	.	(16ff#\LL	p	.
8r	.	.	16gg\	.	.
.	.	.	16ccc\JJ	.	.
4r	.	.	16bb\LL	.	.
.	.	.	16gg\	.	.
.	.	.	16ee\	.	.
.	.	.	16b\JJ)	.	.
16r	.	.	(8g/	.	.
(16e\LL	.	.	.	.	.
16c\	.	.	4f#/)	.	.
16B\JJ	.	.	.	.	.
16A\LL	.	.	.	.	.
16d#X\	.	.	.	.	.
16c\	.	.	(8cc\	.	.
16A\JJ)	.	.	.	.	.
=10	=10	=10	=10	=10	=10
!!linebreak:original
(16G\LL	.	.	8b\L	.	.
16B\	.	.	.	.	.
16d#X\	.	.	8dd#X\	.	.
16B\JJ	.	.	.	.	.
16f#\LL	.	.	8.ff#\	.	.
16B\	.	.	.	.	.
16e\	.	.	.	.	.
16B\JJ	.	.	16ee\Jk)	.	.
16F#\LL	.	.	(8ee\	.	.
16A\	.	.	.	.	.
16d#\	.	.	4dd#\)	.	.
16A\JJ	.	.	.	.	.
16B\LL	.	.	.	.	.
16A\	.	.	.	.	.
16B\	.	.	[8b\	.	.
16A\JJ)	.	.	.	.	.
=11	=11	=11	=11	=11	=11
(16G\LL	.	.	8b\]	.	.
16B\	.	.	.	.	.
!	!	!	!LO:TX:a:i:t=espressivo	!	!
16c\	.	.	(4e/ 4ee	.	.
16B\JJ	.	.	.	.	.
16F#\LL	.	.	.	.	.
16c\	.	.	.	.	.
16B\	.	.	4d#X/ 4dd#X	.	.
16A\JJ	.	.	.	.	.
16Fn\LL	.	.	.	.	.
16A\	.	.	.	.	.
16B\	.	.	4dn/ 4ddn	.	.
16A\JJ	.	.	.	.	.
16E\LL	.	.	.	.	.
16B\	.	.	.	.	.
16A\	.	.	[8c#X/ [8cc#X	.	.
16G\JJ)	.	.	.	.	.
=12	=12	=12	=12	=12	=12
(16E\LL	.	.	8c#/] 8cc#]	.	.
16G\	.	.	.	.	.
16A\	.	.	4cn/ 4ccn	.	.
16G\JJ	.	.	.	.	.
16E\LL	.	.	.	.	.
16G\	.	.	.	.	.
16F#\	.	.	4A#X/ 4a#X	.	.
16E\JJ	.	.	.	.	.
16D#X\LL	.	.	.	.	.
16E\	.	.	.	.	.
16D#\	.	.	4B/) 4b	.	.
16C\JJ	.	.	.	.	.
16BB/LL	.	.	.	.	.
16AA/	.	.	.	.	.
16GG/	.	.	[8an\ [8aa	.	.
16FF#/JJ	.	.	.	.	.
=13	=13	=13	=13	=13	=13
!!linebreak:original
8EE/)	.	.	16a\LL] 16aa]	.	.
.	.	.	(16ff#\	.	.
8r	.	.	16gg\	.	.
.	.	.	16ccc\JJ	.	.
!	!	!	!	!LO:HP:t=crescendo:ext:ext:ud	!
4r	.	.	16bb\LL	<	.
.	.	.	16gg\	.	.
.	.	.	16ee\	.	.
.	.	.	16b\JJ)	.	.
16r	.	.	(8g/	.	.
(16G\LL	.	.	.	.	.
16A\	.	.	4f#/)	.	.
16c\JJ	.	.	.	.	.
16B\LL	.	.	.	.	.
16A\	.	.	.	.	.
16G\	.	.	((8d#X/ 8cc	.	.
16F#\JJ	.	.	.	.	.
=14	=14	=14	=14	=14	=14
8G\)	.	.	16e\LL)) 16b	.	.
.	.	.	(16ff#\	.	.
8r	.	.	16gg\	.	.
.	.	.	16ccc\JJ	.	.
4r	.	.	16bb\LL	.	.
.	.	.	16gg\	.	.
.	.	.	16ee\	.	.
.	.	.	16b\JJ)	.	.
*clefG2	*	*	*	*	*
16r	.	.	(8b-X\	.	.
(16d/LL	.	.	.	.	.
16e/	.	.	4a/)	.	.
16g/JJ	.	.	.	.	.
16f#/LL	.	.	.	.	.
16e/	.	.	.	.	.
16d/	.	.	([8a\ 8gg	.	.
16c#X/JJ	.	.	.	.	.
=15	=15	=15	=15	=15	=15
*	*	*	*^	*	*
8d/)	.	.	16a\LL]) 16ff#	2ryy	[ p	.
.	.	.	(<16ccn\	.	.	1
*ped	*	*	*	*	*	*
8r	.	.	16ff#\	.	.	2
.	.	.	16bb\JJ	.	.	5
*clefF4	*	*	*	*	*	*
8.D\L	.	.	16aa\LL	.	.	4
.	.	.	16ff#\	.	.	2
.	.	.	16cc\	.	.	1
(16D\Jk	.	.	16a\JJ	.	.	3
[2DD/)	.	.	8.g/L	16g\LL	.	5
*Xped	*	*	*	*	*	*
.	.	.	.	16A\	.	.
.	.	.	.	16c\	.	.
.	.	.	(16g/Jk	16g\JJ	.	5
.	.	.	8.f#/L)	16f#\LL	.	4
.	.	.	.	16A\	.	.
.	.	.	.	16c\	.	.
.	.	.	(16f#/Jk)	16f#\JJ	.	5
=16	=16	=16	=16	=16	=16	=16
!!linebreak:original
8DD/]	.	.	8.e/L)	16e\LL	.	4
.	.	.	.	16G\	.	.
8r	.	.	.	16c\	.	.
.	.	.	(16e/Jk	16e\JJ	.	4
4r	.	.	8.d/L)	16d\LL	.	3
.	.	.	.	16F#\	.	.
.	.	.	.	16c\	.	.
.	.	.	(16d/Jk	16d\JJ	.	1
16r	.	.	[2d/) [2f# [2cc	2ryy	.	1 2 5
*ped	*	*	*	*	*	*
(16D\LL	.	.	.	.	.	.
16c\	.	.	.	.	.	.
16A\JJ	.	.	.	.	.	.
16F#/LL	.	.	.	.	.	.
16D/	.	.	.	.	.	.
16C/	.	.	.	.	.	.
16AA/JJ	.	.	.	.	.	.
=17	=17	=17	=17	=17	=17	=17
*Xped	*	*	*	*	*	*
8DD/)	.	.	16d\LL] 16f#] 16cc]	2ryy	.	.
*ped	*	*	*	*	*	*
!	!	!	!	!	!LO:HP:t=cre-scen-do:ext:ext:ud	!
.	.	.	(16dd\	.	<	.
8r	.	.	16gg#X\	.	.	.
.	.	.	16ccc\JJ	.	.	.
8.D\L	.	.	16bb\LL	.	.	.
.	.	.	16gg#\	.	.	.
.	.	.	16dd\	.	.	.
(16D\Jk	.	.	16b\JJ	.	.	3
*Xped	*	*	*	*	*	*
[2DD/)	.	.	8.a/L	16a\LL	.	5
.	.	.	.	16B\	.	.
.	.	.	.	16d\	.	.
.	.	.	(<16a/Jk	16a\JJ	.	.
.	.	.	8.g#X/L)	16g#\LL	.	.
.	.	.	.	16B\	.	.
.	.	.	.	16d\	.	.
.	.	.	(<16g#/Jk	16g#\JJ	.	.
=18	=18	=18	=18	=18	=18	=18
8DD/]	.	.	8.fn/L)	16fn\LL	.	.
.	.	.	.	16A\	.	.
8r	.	.	.	16d\	.	.
.	.	.	(<16f/Jk	16f\JJ	.	.
4r	.	.	8.e/L)	16e\LL	.	.
.	.	.	.	16G#X\	.	.
.	.	.	.	16d\	.	.
.	.	.	(<16e/Jk	16e\JJ	.	.
16r	.	.	[2e/)) [2g#X [2dd	2ryy	[	.
*ped	*	*	*	*	*	*
(16E\LL	.	.	.	.	.	.
16d\	.	.	.	.	.	.
16B\JJ	.	.	.	.	.	.
16G#X\LL	.	.	.	.	.	.
16E\	.	.	.	.	.	.
16D\	.	.	.	.	.	.
16BB\JJ	.	.	.	.	.	.
*	*	*	*v	*v	*	*
=19	=19	=19	=19	=19	=19
!!pagebreak:original
8DD/)	.	.	16e\LL] 16g#] 16dd]	.	.
*ped	*	*	*	*	*
.	.	.	(16ggn\	.	.
8r	.	.	16bb-X\	.	.
.	.	.	16fff#\JJ	.	.
8.r	.	.	16eee\LL	.	.
.	.	.	16bb-\	.	.
.	.	.	16gg\JJ)	.	.
*clefG2	*	*	*	*	*
(16ff#\	.	.	16r	.	.
16ee\LL	.	.	8.r	.	.
16b-X\	.	.	.	.	.
16g\JJ)	.	.	.	.	.
16r	.	.	(16f#/	.	.
8.r	.	.	16e/LL	.	.
.	.	.	16B-X/	.	.
.	.	.	16G/JJ)	.	.
*clefF4	*	*	*	*	*
*Xped	*	*	*	*	*
(16F#\	.	.	16r	.	.
=20	=20	=20	=20	=20	=20
*^	*	*	*	*	*
8.E/L	16E\LL	.	.	1r	.	.
.	16BB-X\	.	.	.	.	.
.	16GG\	.	.	.	.	.
(<16D/Jk	16D\JJ	.	.	.	.	.
8.C#X/L)	16C#\LL	.	.	.	.	.
.	16GG\	.	.	.	.	.
.	16EE\	.	.	.	.	.
(<16BB-/Jk	16BB-\JJ	.	.	.	.	.
8.AA/L)	16AA\LL	.	.	.	.	.
.	16EE\	.	.	.	.	.
.	16CC#X\	.	.	.	.	.
(<16BB-/Jk	16BB-\JJ	.	.	.	.	.
8.AA/L)	16AA\LL	.	.	.	.	.
.	16EE\	.	.	.	.	.
.	16CC#\	.	.	.	.	.
(<16BB-/Jk)	16BB-\JJ	.	.	.	.	.
=21	=21	=21	=21	=21	=21	=21
!	!	!	!	!	!LO:HP:t=diminuendo	!
8.AA/L)	16AA\LL	.	.	1r	>	.
.	16EE\	.	.	.	.	.
.	16CC#X\	.	.	.	.	.
(<16BB-X/Jk	16BB-\JJ	.	.	.	.	.
8.AA/L)	16AA\LL	.	.	.	.	.
.	16EE\	.	.	.	.	.
.	16CC#\	.	.	.	.	.
(<16BB-/Jk	16BB-\JJ	.	.	.	.	.
8.AA/L)	16AA\LL	.	.	.	.	.
.	16EE\	.	.	.	.	.
.	16CC#\	.	.	.	.	.
(<16BB-/Jk	16BB-\JJ	.	.	.	.	.
8.AA/L)	16AA\LL	.	.	.	.	.
.	16EE\	.	.	.	.	.
.	16CC#\	.	.	.	.	.
(<16GG/Jk	16GG\JJ	.	.	.	.	.
*v	*v	*	*	*	*	*
*	*	*	*clefF4	*	*
=22	=22	=22	=22	=22	=22
!!linebreak:original
8DD/) 8FF#	.	.	8r	.	.
8r	.	.	(16D/LL	<	.
.	.	.	16C#X/JJ	.	.
4r	.	.	16D\LL	.	.
.	.	.	16E\	.	.
.	.	.	16F#\	.	.
.	.	.	16B\JJ	.	.
2r	.	.	16A\LL	.	.
.	.	.	16B\	.	.
.	.	.	16c\	.	.
.	.	.	16e\JJ	.	.
*	*	*	*clefG2	*	*
.	.	.	16d/LL	.	.
.	.	.	16e/	.	.
.	.	.	16f#/	.	.
.	.	.	16b/JJ	[	.
=23	=23	=23	=23	=23	=23
1r	.	.	12a/L)	.	.
.	.	.	(12d'/	>	.
.	.	.	12c#X'/J	.	.
.	.	.	12d'/L	.	.
.	.	.	12d#X'/	.	.
.	.	.	12e'/J	.	.
.	.	.	12e#X'/L	.	.
.	.	.	12f#'/	.	.
.	.	.	12g'/J	.	.
.	.	.	12g#X'/L	.	.
.	.	.	12a'/	.	.
.	.	.	12a#X'/J)	]	.
=24	=24	=24	=24	=24	=24
*^	*	*	*^	*	*
!	!	!	!	!LO:TX:a:t=cantabile e ben legato	!	!	!
8r	2GG\	.	.	2b/	8r	p	.
8D/L	.	.	.	.	8B\L	.	.
8E/	.	.	.	.	8c\	.	.
8E-X/J	.	.	.	.	8c#X\J	.	.
4D/	2BB\	.	.	4g/	8d\L	.	.
.	.	.	.	.	8e\	.	.
8B/L	.	.	.	4dd/	8f#\	.	.
8G/J	.	.	.	.	8g\J	.	.
=25	=25	=25	=25	=25	=25	=25	=25
[1E	8AA\L	.	.	4dd/	2.g\	.	.
.	8EE\	.	.	.	.	.	.
.	8FF#\	.	.	2cc/	.	.	.
.	8GG#X\J	.	.	.	.	.	.
.	8AA\L	.	.	.	.	.	.
.	8GG#\	.	.	.	.	.	.
.	8AA\	.	.	[4b/	[4g\	.	.
.	8BB\J	.	.	.	.	.	.
*	*	*	*	*v	*v	*	*
=26	=26	=26	=26	=26	=26	=26
!!linebreak:original
8E/]	8C\L	.	.	4g/] 4b]	.	.
8ryy	8BB\	.	.	.	.	.
4ryy	8C\	.	.	(4e/ 4g 4a	.	.
.	8C#X\J	.	.	.	.	.
2ryy	8D\L	.	.	4d'/ 4g 4a	.	.
.	8C#\	.	.	.	.	.
.	8D\	.	.	4c#X'/) 4g 4a	.	.
.	8E\J	.	.	.	.	.
=27	=27	=27	=27	=27	=27	=27
*	*	*	*	*^	*	*
8r	[2D\	.	.	[2a/	8d\L 8f#	.	.
8G/L	.	.	.	.	8c#X\	.	.
8F#/	.	.	.	.	8d\	.	.
8E/J	.	.	.	.	8e\J	.	.
8F#/	8D\L]	.	.	8a/L]	8d\	.	.
8ryy	(<8E\	.	.	(8a/	8ryy	.	.
4ryy	8D\	.	.	8b/	4ryy	.	.
.	8C\J)	.	.	8cc/J	.	.	.
*	*	*	*	*v	*v	*	*
=28	=28	=28	=28	=28	=28	=28
8r	(2BB\	.	.	8dd\)	.	.
4D/	.	.	.	8r	.	.
!	!	!	!	!LO:TX:b:t=espress.:i	!	!
.	.	.	.	(<4d/ 4dd	.	.
4D/	.	.	.	.	.	.
.	2GG#X\	.	.	4e/ 4ee	.	.
4D/	.	.	.	.	.	.
.	.	.	.	[4B/ [4b	.	.
[8D/L	.	.	.	.	.	.
=29	=29	=29	=29	=29	=29	=29
8D/]J	2AA\	.	.	8B/L] 8b]	.	.
4D/	.	.	.	8c/J 8cc	.	.
.	.	.	.	2f#\) 2ff#	.	.
4D/	.	.	.	.	.	.
.	2AA#X\	.	.	.	.	.
4D/	.	.	.	.	.	.
.	.	.	.	[4e/ [4ee	.	.
[8D/L	.	.	.	.	.	.
=30	=30	=30	=30	=30	=30	=30
8D/]J	(2BB\)	.	.	8e/L] 8ee]	.	.
4D/	.	.	.	(8d'/ 8dd	.	.
.	.	.	.	8d'/ 8dd	.	.
4D/	.	.	.	[8d/J [8dd	.	.
.	2GG#X\	.	.	8d/L]) 8dd]	.	.
4D/	.	.	.	(8d/ 8dd	.	.
.	.	.	.	8e/) 8ee	.	.
[8D/L	.	.	.	[8B/J [8b	.	.
=31	=31	=31	=31	=31	=31	=31
!!linebreak:original
8D/]J	2.AA\	.	.	8B/L] 8b]	.	.
4D/	.	.	.	(8c'/ 8cc	.	.
.	.	.	.	8c'/ 8cc	.	.
4D/	.	.	.	8c'/J) 8cc	.	.
.	.	.	.	((4.f#\ 4.ff#	.	.
4D/	.	.	.	.	.	.
.	4AA#X\)	.	.	.	.	.
[8D/	.	.	.	8e/)) 8ee	.	.
=32	=32	=32	=32	=32	=32	=32
*	*	*	*	*^	*	*
(8D/L]	2BB\	.	.	4rff	8rd	.	.
8Fn/	.	.	.	.	(8d\L	.	.
8D/	.	.	.	(2dd^/	8fn\	.	.
8E/J	.	.	.	.	8e\J	.	.
8F/L	2BB-X\	.	.	.	8d\L	.	.
8D/	.	.	.	.	8f\	.	.
8E/	.	.	.	4g#X/)	8e\	.	.
8E#X/J)	.	.	.	.	8d\J)	.	.
=33	=33	=33	=33	=33	=33	=33	=33
(8F#/L	[1AA	<	.	(2b/	(8d\L	.	.
8E#X/	.	.	.	.	8c#X\	.	.
8F#/	.	.	.	.	8d\	.	.
8G/J	.	.	.	.	8e\J	.	.
8A/L	.	.	.	4a/)	8f#\L	.	.
8F#/	.	.	.	.	8d\	.	.
8E#/	.	.	.	4r	8c#\	.	.
8En/J)	.	.	.	.	8cn\J)	.	.
=34	=34	=34	=34	=34	=34	=34	=34
(8D/L	1AA]	.	.	4r	(8B\L	.	.
8C#X/	.	.	.	.	8A\	.	.
8D/	.	.	.	(4g/	8B-X\	.	.
8C#/J	.	.	.	.	8A\J	.	.
8D/L	.	.	.	4f#/	8B-\L	.	.
8C#/J	.	.	.	.	8A\	.	.
4G/	.	.	.	4e/	8Bn\	.	.
.	.	[	.	.	8c#X\J	.	.
*	*	*	*	*v	*v	*	*
=35	=35	=35	=35	=35	=35	=35
8F#/)	8D\	.	.	8d/))	.	.
!	!	!LO:HP:a	!	!	!	!
(8DD/L	8ryy	>	.	8r	.	.
8FF#/	4ryy	.	.	4r	.	.
8AA/J	.	.	.	.	.	.
8D\L	2ryy	.	.	2r	.	.
8F#\	.	.	.	.	.	.
8A\	.	.	.	.	.	.
8cn\J)	.	]	.	.	.	.
*v	*v	*	*	*	*	*
=36	=36	=36	=36	=36	=36
!!linebreak:original
(8qGG/	.	.	.	.	.
*	*	*	*^	*	*
*	*	*	*	*Xtuplet	*	*
(2B\)	<	.	4ryy	12r	<	.
.	.	.	.	(12c#X/L	p	.
.	.	.	.	12d/J	.	.
!	!	!	!LO:TX:a:t=marcato un poco:i	!	!	!
.	.	.	4dd/	12dd\L	.	.
.	.	.	.	12f#\	.	.
.	.	.	.	12g\J	.	.
4G\	.	.	4ccn/	12ccn\L	.	.
.	.	.	.	12f#\	.	.
.	.	.	.	12g\J	.	.
4G#X\ [4d	.	.	4b/	12b\L	.	.
.	.	.	.	12e\	.	.
.	[[	.	.	12fn\J	[	.
=37	=37	=37	=37	=37	=37	=37
*^	*	*	*	*	*	*
4d/]	[2A\	>	.	2b/	12b\L	.	.
.	.	.	.	.	12e\	.	.
.	.	.	.	.	12e#X\J	.	.
8c/L	.	.	.	.	12f#\L	.	.
.	.	.	.	.	12g\	.	.
8B/J	.	.	.	.	.	.	.
.	.	.	.	.	12g#X\J	.	.
.	.	.	.	(8qb/	.	.	.
8c/)	8A\]	]]	.	8a/)	12a\L	.	.
.	.	.	.	.	12g#\	.	.
8r	8ryy	.	.	8ryy	.	.	.
.	.	.	.	.	12a\J	.	.
4r	4ryy	.	.	4ryy	12ee\L	.	.
.	.	.	.	.	12cc\	.	.
.	.	.	.	.	12a\J)	.	.
*v	*v	*	*	*	*	*	*
=38	=38	=38	=38	=38	=38	=38
8qAA/	.	.	.	.	.	.
(2c\	.	.	4ryy	12r	.	.
.	.	.	.	(12d#X/L	.	.
.	.	.	.	12e/J	.	.
.	.	.	4ee/	12ee\L	.	.
.	.	.	.	12g#X\	.	.
.	.	.	.	12a\J	.	.
4A\	.	.	4ddn/	12ddn\L	.	.
.	.	.	.	12g#\	.	.
.	.	.	.	12a\J	.	.
4A#X\ [4e	.	.	4cc/	12cc\L	.	.
.	.	.	.	12f#\	.	.
.	.	.	.	12gn\J	.	.
=39	=39	=39	=39	=39	=39	=39
*^	*	*	*	*	*	*
4e/]	[2B\	.	.	2cc/	12cc\L	.	.
.	.	.	.	.	12f#\	.	.
.	.	.	.	.	12g\J	.	.
8d#X/L	.	.	.	.	12g#X\L	.	.
.	.	.	.	.	12a\	.	.
8c#X/J	.	.	.	.	.	.	.
.	.	.	.	.	12a#X\J	.	.
.	.	.	.	.	(<8qcc/	.	.
8d#/)	8B\]	.	.	8ryy	12b/L)	.	.
.	.	.	.	.	12a#/	.	.
8r	8ryy	.	.	8ryy	.	.	.
.	.	.	.	.	12b/J	.	.
4r	4ryy	.	.	4ryy	12ff#\L	.	.
.	.	.	.	.	12dd#X\	.	.
.	.	.	.	.	12b\J)	.	.
*v	*v	*	*	*	*	*	*
=40	=40	=40	=40	=40	=40	=40
!!linebreak:original
(2E\	.	.	4ryy	12r	.	.
!	!	!	!LO:TX:b:t=con gran espressione:i	!	!	!
.	.	.	.	(12g/L	.	.
.	.	.	.	12a#X/J	.	.
.	.	.	4gg/	12gg\L	.	.
.	.	.	.	12g\	.	.
.	.	.	.	12a#\J	.	.
4C#X/	.	.	4ff#/	12ff#\L	.	.
.	.	.	.	12g\	.	.
.	.	.	.	12a#\J	.	.
4G\	.	.	4ee/	12ee\L	.	.
.	.	.	.	12e\	.	.
.	.	.	.	12a#\J	.	.
=41	=41	=41	=41	=41	=41	=41
4F#\	.	.	4dd/	12dd\L	.	.
.	.	.	.	12f#\	.	.
.	.	.	.	12a#X\J	.	.
4E\	.	.	4cc#X/	12cc#\L	.	.
.	.	.	.	12f#\	.	.
.	.	.	.	12a#\J	.	.
4D\	.	.	4ff#/	12ff#\L	.	.
.	.	.	.	12f#\	.	.
.	.	.	.	12a#\J	.	.
4C#X/)	.	.	4ee/	12ee\L	.	.
.	.	.	.	12f#\	.	.
.	.	.	.	12a#\J)	.	.
=42	=42	=42	=42	=42	=42	=42
(2F#\	.	.	4ryy	12r	.	.
.	.	.	.	(12an\L	.	.
.	.	.	.	12ccn\J	<	.
.	.	.	4aa/	12aa\L	.	.
.	.	.	.	12a\	.	.
.	.	.	.	12cc\J	.	.
4D#X\	.	.	4gg/	12gg\L	.	.
.	.	.	.	12a\	.	.
.	.	.	.	12cc\J	.	.
4A\	.	.	4ff#/	12ff#\L	.	.
.	.	.	.	12f#\	.	.
.	.	.	.	12cc\J	.	.
=43	=43	=43	=43	=43	=43	=43
4G\	.	.	4ee/	12ee\L	.	.
.	.	.	.	12a\	.	.
.	.	.	.	12cc\J	.	.
4F#\	.	.	4dd#X/	12dd#\L	.	.
.	.	.	.	12a\	.	.
.	.	.	.	12cc\J	.	.
4E\	.	.	4gg/	12gg\L	.	.
.	.	.	.	12a\	.	.
.	.	.	.	12cc\J	.	.
4D#X\)	.	.	4ff#/	12ff#\L	.	.
.	.	.	.	12a\	[	.
.	.	.	.	12cc\J	.	.
=44	=44	=44	=44	=44	=44	=44
!!linebreak:original
*^	*	*	*	*	*	*
8ryy	8E\L	.	.	4gg/)	8gg\L	.	.
8ryy	8c\J	.	.	.	(>8b-X\ 8cc	.	.
4C/	8C\L	.	.	4bb-X/	8bb-\	p	.
.	8c\	.	.	.	8b-\ 8cc	.	.
4D/	8D\	.	.	4aa/	8aa\	.	.
.	8c\	.	.	.	8b-\ 8cc	.	.
4E/	8E\	.	.	4gg/	8gg\	.	.
.	8c\J	.	.	.	8b-\J 8cc	.	.
=45	=45	=45	=45	=45	=45	=45	=45
8Fn/	2Fn\	.	.	4gg/	8gg\L	.	.
4c/	.	.	.	.	8a\ 8cc	.	.
.	.	.	.	4ffn/	8ff\	.	.
8c/	.	.	.	.	8a\ 8ccJ	.	.
4G/	8G\L	.	.	4ee/	8ee\L	.	.
.	8c\	.	.	.	8e\ 8b-X	.	.
4F/	8F\	.	.	4dd/	8dd\	.	.
.	8c\J	.	.	.	8fn\J 8b-	.	.
=46	=46	=46	=46	=46	=46	=46	=46
8E\L	8E/	.	.	8cc'/)	8cc\L	pp	.
8B-X'\ 8c	8ryy	.	.	8ryy	8g'\ 8b-X	.	.
8C\	8C/	.	.	8bb-X'/	8bb-\	.	.
8B-'\J 8c	8ryy	.	.	8ryy	8e'\J 8cc	.	.
8D\L	8D/	.	.	8aa'/	8aa\L	.	.
8B-'\ 8c	8ryy	.	.	8ryy	8fn'\ 8cc	.	.
8E\	8E/	.	.	8gg'/	8gg\	.	.
8B-'\J 8c	8ryy	.	.	8ryy	8g'\J 8cc	.	.
*v	*v	*	*	*	*	*	*
=47	=47	=47	=47	=47	=47	=47
8Fn'\L	.	.	8gg'/	8gg\L	.	.
8B-X'\ 8c	.	.	8ryy	8g'\ 8cc	.	.
8A'\	.	.	8ffn'/	8ffn\	.	.
8c'\J	.	.	8ryy	8fn'\J 8cc	.	.
8G'\L	.	.	8ee'/	8ee\L	.	.
8c#X'\	.	.	8ryy	8e'\ 8b-X	.	.
8F'\	.	.	8dd'/	8dd\	.	.
8d'\J	.	.	8ryy	8f'\J 8b-	.	.
=48	=48	=48	=48	=48	=48	=48
*^	*	*	*	*	*	*
8E\L	4ryy	.	.	8cc#X/	8cc#\L	.	.
8B-X'\J 8c#X	.	.	.	8ryy	8g'\ 8b-XJ	.	.
!	!	!	!	!	!	!LO:HP:a	!
8C#X/	2C#X\	.	.	(4gg/	8gg\L	>	.
4G/ 4B-	.	.	.	.	8e\ 8g 8b-	.	.
.	.	.	.	4ee/	8ee\	.	.
4G/ 4B-	.	.	.	.	8e\ 8g 8b-	.	.
.	4D\	.	.	4dd/	8dd\	.	.
8G/ 8B-	.	.	.	.	8d\J 8g 8b-	]	.
=49	=49	=49	=49	=49	=49	=49	=49
!!pagebreak:original
8E\L	8E/	.	.	8cc#X/)	8cc#\L	.	.
8G'\J 8B-X	8ryy	.	.	8ryy	8c#X'\ 8g 8b-XJ	.	.
!	!	!	!	!	!	!LO:HP:a	!
8ryy	2E\	.	.	(4bb-X/	8bb-\L	>	.
4B-/ 4c#X	.	.	.	.	8g\ 8b- 8cc#	.	.
.	.	.	.	4gg/	8gg\	.	.
4B-/ 4c#	.	.	.	.	8g\ 8b- 8cc#	.	.
.	4Fn\	.	.	4ffn/	8ffn\	.	.
8B-/ 8c#	.	.	.	.	8fn\J 8b- 8cc#	]	.
*	*	*	*	*v	*v	*	*
=50	=50	=50	=50	=50	=50	=50
8G\ 8B-X 8c#X	4ryy	.	.	8e\) 8b-X 8cc#X 8ee	.	.
8r	.	.	.	8r	pp	.
*clefG2	*	*	*	*	*	*
*ped	*	*	*	*	*	*
32cc#X/LLL	4cc#\	.	.	8ryy	.	.
32gg/	.	.	.	.	.	.
32bb-X/	.	.	.	.	.	.
32eee/JJJ	.	.	.	.	.	.
*	*	*	*	*8va	*	*
!	!	!	!	!	!LO:HP:t=cre-scen-do poco a poco:ext=s:ext=ud	!
8ryy	.	.	.	32ggg\LLL	<	.
.	.	.	.	32bbb-X\	.	.
.	.	.	.	32eeee\	.	.
.	.	.	.	32gggg\JJJ	.	.
*v	*v	*	*	*	*	*
*	*	*	*X8va	*	*
*^	*	*	*	*	*
32b-X/LLL	4b-\	.	.	8r	.	.
32ee/	.	.	.	.	.	.
32gg/	.	.	.	.	.	.
32ccc#X/JJJ	.	.	.	.	.	.
*	*	*	*	*8va	*	*
8ryy	.	.	.	32eee\LLL	.	.
.	.	.	.	32ggg\	.	.
.	.	.	.	32cccc#X\	.	.
.	.	.	.	32eeee\JJJ	.	.
*v	*v	*	*	*	*	*
*	*	*	*X8va	*	*
*^	*	*	*	*	*
32g/LLL	4g\	.	.	8r	.	.
32cc#/	.	.	.	.	.	.
32ee/	.	.	.	.	.	.
32bb-X/JJJ	.	.	.	.	.	.
*	*	*	*	*8va	*	*
8ryy	.	.	.	32ccc#X\LLL	.	.
.	.	.	.	32eee\	.	.
.	.	.	.	32bbb-X\	.	.
.	.	.	.	32cccc#\JJJ	.	.
*v	*v	*	*	*	*	*
*	*	*	*X8va	*	*
=51	=51	=51	=51	=51	=51
*^	*	*	*	*	*
32e/LLL	4e\	.	.	8r	.	.
32b-X/	.	.	.	.	.	.
32cc#X/	.	.	.	.	.	.
32gg/JJJ	.	.	.	.	.	.
*	*	*	*	*8va	*	*
8ryy	.	.	.	32bb-X\LLL	.	.
.	.	.	.	32ccc#X\	.	.
.	.	.	.	32ggg\	.	.
.	.	.	.	32bbb\JJJ	.	.
*v	*v	*	*	*	*	*
*	*	*	*X8va	*	*
*^	*	*	*	*	*
32c#X/LLL	4c#\	.	.	8r	.	.
32g/	.	.	.	.	.	.
32b-X/	.	.	.	.	.	.
32ee/JJJ	.	.	.	.	.	.
*	*	*	*	*8va	*	*
8ryy	.	.	.	32gg\LLL	.	.
.	.	.	.	32bb-X\	.	.
.	.	.	.	32eee\	.	.
.	.	.	.	32ggg\JJJ	[	.
*v	*v	*	*	*	*	*
*	*	*	*X8va	*	*
=	=	=	=	=	=
!!linebreak:original
*^	*	*	*	*	*
32B-X/LLL	4B-\	.	.	8r	.	.
32e/	.	.	.	.	.	.
32g/	.	.	.	.	.	.
32cc#/JJJ	.	.	.	.	.	.
8ryy	.	.	.	32ee\LLL	.	.
.	.	.	.	32gg\	.	.
.	.	.	.	32ccc#X\	.	.
.	.	.	.	32eee\JJJ	.	.
32G/LLL	4G\	.	.	8r	.	.
32c#/	.	.	.	.	.	.
32e/	.	.	.	.	.	.
32b-y/JJJ	.	.	.	.	.	.
8ryy	.	.	.	32cc#\LLL	.	.
.	.	.	.	32ee\	.	.
.	.	.	.	32bb-X\	.	.
*Xped	*	*	*	*	*	*
.	.	.	.	32ccc#\JJJ	.	.
*v	*v	*	*	*	*	*
*clefF4	*	*	*	*	*
=52	=52	=52	=52	=52	=52
*Xtuplet	*	*	*	*	*
(12F#\L	.	.	8dd\ 8aa 8ddd	f	.
12cn\	.	.	.	.	.
.	.	.	8r	.	.
12B\J	.	.	.	.	.
12A\L	.	.	(>4d/ 4dd	.	.
12G\	.	.	.	.	.
12F#\J	.	.	.	.	.
12G#X\L	.	.	4.e/ 4.ee	.	.
12B\	.	.	.	.	.
12A\J	.	.	.	.	.
12G#\L	.	.	.	.	.
12F#\	.	.	.	.	.
.	.	.	[8B/ [8b	.	.
12E\J)	.	.	.	.	.
=53	=53	=53	=53	=53	=53
(12A\L	.	.	8B/L]) 8b]	.	.
12B\	.	.	.	.	.
.	.	.	8c/ 8cc	.	.
12A\J	.	.	.	.	.
12Gn\L	.	.	8c/ 8cc	.	.
12F#\	.	.	.	.	.
.	.	.	8c/J 8cc	.	.
12E\J	.	.	.	.	.
12D\L	.	.	(<4.f#\ 4.ff#	.	.
12E\	.	.	.	.	.
12D\J	.	.	.	.	.
12C/L	.	.	.	.	.
12D/	.	.	.	.	.
.	.	.	[8e/) [8ee	.	.
12C/J)	.	.	.	.	.
=54	=54	=54	=54	=54	=54
(12BB/L	.	.	8e/L] 8ee]	.	.
12D/	.	.	.	.	.
.	.	.	8d/ 8dd	.	.
12C/J	.	.	.	.	.
12BB/L	.	.	8d/ 8dd	.	.
12AA/	.	.	.	.	.
.	.	.	[8d/J [8dd	.	.
12GG/J	.	.	.	.	.
12GG#X/L	.	.	8d/L] 8dd]	.	.
12BB/	.	.	.	.	.
.	.	.	(8d/ 8dd	.	.
12AA/J	.	.	.	.	.
12GG#/L	.	.	8e/) 8ee	.	.
12FF#/	.	.	.	.	.
!	!	!	!LO:TX:t=P:problem:brak rozpoczęcia ligatury	!	!
.	.	.	[8B/J [8b	.	.
12EE/J)	.	.	.	.	.
=55	=55	=55	=55	=55	=55
!!linebreak:original
(12AA/L	.	.	8B/L] 8b]	.	.
12BB/	.	.	.	.	.
.	.	.	8c/ 8cc	.	.
12AA/J	.	.	.	.	.
12GGn/L	.	.	8c/ 8cc	.	.
12FF#/	.	.	.	.	.
.	.	.	8c/J 8cc	.	.
12EE/J	.	.	.	.	.
12DD/L	.	.	(<4.f#\ 4.ff#	.	.
12EE/	.	.	.	.	.
12DD/J	.	.	.	.	.
12CC/L	.	.	.	.	.
12DD/	.	.	.	.	.
.	.	.	8e/ 8ee	.	.
12CC/J)	.	.	.	.	.
=56	=56	=56	=56	=56	=56
*^	*	*	*^	*	*
*	*	*	*	*ped	*	*	*
12BBB/L	2ryy	.	.	8d/) 8dd	2ryy	.	.
12DD/	.	.	.	.	.	.	.
.	.	.	.	8r	.	.	.
12GG/J	.	.	.	.	.	.	.
12BB\L	.	.	.	4dd'\ 4gg 4ddd	.	sf	.
12D\	.	.	.	.	.	.	.
*	*	*	*	*Xped	*	*	*
12G\J	.	.	.	.	.	.	.
12C#X/L	2C#\	.	.	4ryy	8r	.	.
12E/	.	.	.	.	.	.	.
!	!	!	!	!	!	!LO:DY:rj	!
.	.	.	.	.	(8e\L	p	.
12G/	.	.	.	.	.	.	.
12A/	.	.	.	4ee/	8b\	.	.
12G/	.	.	.	.	.	.	.
.	.	.	.	.	8a\J	.	.
12E/J	.	.	.	.	.	.	.
=57	=57	=57	=57	=57	=57	=57	=57
*ped	*	*	*	*	*	*	*
12D/L	2D\	.	.	4g#X/)	8g#\	.	.
12Fn/	.	.	.	.	.	.	.
.	.	.	.	.	8r	.	.
12B/	.	.	.	.	.	.	.
12d/	.	.	.	4ffn'\ 4bb 4fffn	4ryy	sf	.
12B/	.	.	.	.	.	.	.
*Xped	*	*	*	*	*	*	*
12F/J	.	.	.	.	.	.	.
12E/L	2E\	.	.	4ryy	8r	.	.
12G/	.	.	.	.	.	.	.
!	!	!	!	!	!	!LO:DY:rj	!
.	.	.	.	.	(8g#\L	p	.
12A/	.	.	.	.	.	.	.
12B-X/	.	.	.	4gg/	8dd\	.	.
12A/	.	.	.	.	.	.	.
.	.	.	.	.	8cc#X\J)	.	.
12G/J	.	.	.	.	.	.	.
=58	=58	=58	=58	=58	=58	=58	=58
*ped	*	*	*	*	*	*	*
12F#X/L	2F#\	.	.	4ryy	8r	<	.
12A/	.	.	.	.	.	.	.
.	.	.	.	.	(8a\L	.	.
12c/	.	.	.	.	.	.	.
12d/	.	.	.	4aa/	8ee\	.	.
12c/	.	.	.	.	.	.	.
.	.	.	.	.	8dd\J)	.	.
*Xped	*	*	*	*	*	*	*
12A/J	.	.	.	.	.	.	.
!LO:TX:b:t=simili:i	!	!	!	!	!	!	!
12G/L	2G\	.	.	4ryy	8r	.	.
12A/	.	.	.	.	.	.	.
.	.	.	.	.	(8a\L	.	.
12c#X/	.	.	.	.	.	.	.
12e/	.	.	.	4aa/	8ff#\	.	.
12c#/	.	.	.	.	.	.	.
.	.	.	.	.	8ee\J)	.	.
12A/J	.	.	.	.	.	.	.
=59	=59	=59	=59	=59	=59	=59	=59
!!linebreak:original
12F#/L	2F#\	.	.	4ryy	8r	.	.
12A/	.	.	.	.	.	.	.
.	.	.	.	.	(8a\L	.	.
12cn/	.	.	.	.	.	.	.
12d/	.	.	.	4aa/	8ee\	.	.
12c/	.	.	.	.	.	.	.
.	.	.	.	.	8dd\J)	.	.
12A/J	.	.	.	.	.	.	.
12E/L	2E\	.	.	4ryy	8r	.	.
12A/	.	.	.	.	.	.	.
.	.	.	.	.	(8cc\L	.	.
12c/	.	.	.	.	.	.	.
12g/	.	.	.	4ccc/	8aa\	[	.
12c/	.	.	.	.	.	.	.
.	.	.	.	.	8gg\J)	.	.
12A/J	.	.	.	.	.	.	.
*v	*v	*	*	*	*	*	*
*	*	*	*v	*v	*	*
=60	=60	=60	=60	=60	=60
*	*	*	*tuplet	*	*
*	*	*	*ped	*	*
!	!	!	!LO:TUP:a:problem:klamra łukowa	!	!
(12D\L	.	.	6r	.	.
12A\	.	.	.	.	.
*	*	*	*8va	*	*
.	.	.	(8qaa/	.	.
12c\J	.	.	12aaa\)	.	.
*	*	*	*Xtuplet	*	*
*	*	*	*Xped	*	*
8f#\)	.	.	(12ggg\L	.	.
.	.	.	12fff#\	.	.
8r	.	.	.	.	.
.	.	.	12eee\J	.	.
2r	.	.	12ddd\L	.	.
.	.	.	12ccc\	.	.
.	.	.	12bb\J	.	.
.	.	.	12aa/L	.	.
.	.	.	12gg/	.	.
.	.	.	12ff#/J)	.	.
=61	=61	=61	=61	=61	=61
*	*	*	*tuplet	*	*
*	*	*	*ped	*	*
!	!	!	!LO:TUP:a:problem:klamra łukowa	!	!
(12D\L	.	.	6r	.	.
12A\	.	.	.	.	.
.	.	.	(8qff#/	.	.
12c\J	.	.	12fff#\)	.	.
*	*	*	*Xtuplet	*	*
*	*	*	*Xped	*	*
8f#\)	.	.	(12eee\L	.	.
.	.	.	12ddd\	.	.
8r	.	.	.	.	.
.	.	.	12ccc\J	.	.
2r	.	.	12bb/L	.	.
.	.	.	12aa/	.	.
.	.	.	12gg/J	.	.
.	.	.	12ff#/L	.	.
.	.	.	12ee/	.	.
.	.	.	12dd/J)	.	.
*	*	*	*X8va	*	*
=62	=62	=62	=62	=62	=62
*	*	*	*tuplet	*	*
*	*	*	*ped	*	*
!	!	!	!LO:TUP:a:problem:klamra łukowa	!	!
(12D\L	.	.	6r	.	.
12A\	.	.	.	.	.
.	.	.	(8qdd/	.	.
12c\J	.	.	(12ddd\)	.	.
*	*	*	*Xtuplet	*	*
*	*	*	*Xped	*	*
8f#\)	.	.	12ccc\L	.	.
.	.	.	12bb\	.	.
8r	.	.	.	.	.
.	.	.	12aa\J	.	.
*tuplet	*	*	*	*	*
!LO:TUP:a:problem:klamra łukowa	!	!	!	!	!
6r	.	.	12gg\L	.	.
.	.	.	12ff#\)	.	.
12e'\	.	.	12ee'\J 12eee	ff	.
*Xtuplet	*	*	*	*	*
12d'\L	.	.	12dd'\L 12ddd	.	.
12c'\	.	.	12cc'\ 12ccc	.	.
12B'\J	.	.	12b'\J 12bb	.	.
=63	=63	=63	=63	=63	=63
!!linebreak:original
12A'\L	.	.	12a'\L 12aa	.	.
12G'\	.	.	12g'\ 12gg	.	.
12F#'\J	.	.	12f#'\J 12ff#	.	.
12E'/L	.	.	12e'/L 12ee	.	.
12D'/	.	.	12d'/ 12dd	.	.
12C'/J	.	.	12c'/J 12cc	.	.
12BB'/L	.	.	12B'/L 12b	.	.
12AA'/	.	.	12A'/ 12a	.	.
12GG'/J	.	.	12G'/J 12g	.	.
12FF#'/L	.	.	12F#'/L 12f#	.	.
12EE'/	.	.	12E'/ 12e	.	.
12DD'/J	.	.	12D'/J 12d	.	.
=64	=64	=64	=64	=64	=64
8CC#X'/	.	.	8C#X/ 8c#X'	.	.
8r	.	.	8r	.	.
2CCn/ 2Cn	.	.	2A^>/ 2e-X 2f#	.	.
[4BBB/ [4BB	.	.	[4d^>/ [4fn [4g#X	.	.
=65	=65	=65	=65	=65	=65
*	*	*	*^	*	*
4BBB/] 4BB]	.	.	4d/] 4f] 4g#]	2ryy	.	.
(4AAA/ 4AA	.	.	(>4d/ 4fn 4a	.	p <	.
2GGG#X/) 2GG#X	.	.	4cc/	2d\ 2e	.	.
.	.	.	4b/)	.	[	.
=66	=66	=66	=66	=66	=66	=66
2AAA/ 2AA	.	.	(4dd:/	2c:\ 2e:	>	.
.	.	.	4cc/	.	.	.
2CC/ 2C	.	.	4a/	2G\ 2e	.	.
.	.	.	4g/	.	]]	.
*	*	*	*v	*v	*	*
=67	=67	=67	=67	=67	=67
*^	*	*	*	*	*
2G/	2.DD\ 2.D	.	.	1A) 1d	>	.
2F#/	.	.	.	.	.	.
.	4DD\	.	.	.	]	.
=68	=68	=68	=68	=68	=68	=68
8G/	8GGG\ 8GG	.	.	4ryy	.	.
8r	8r	.	.	.	.	.
*	*	*	*	*^	*	*
!LO:N:vis=2	!	!	!	!LO:TX:b:i:t=leggiero	!	!	!
4GG/	[2.GG\	.	.	8b/L	16b\LL	.	4
.	.	.	.	.	16g\	.	.
.	.	.	.	8cc/J	16cc\	.	5
.	.	.	.	.	16d\JJ	.	.
4G/	.	.	.	8dd/L	16dd\LL	.	4
.	.	.	.	.	16b\	.	.
.	.	.	.	8ee/	16ee\	.	5
.	.	.	.	.	16g\JJ	.	.
4Fn/	.	.	.	8ff#/	16ff#\LL	.	.
.	.	.	.	.	16dd\	.	.
.	.	.	.	8gg/J	16gg\	.	.
.	.	.	.	.	16b\JJ	.	.
=69	=69	=69	=69	=69	=69	=69	=69
!!linebreak:original
4E/	1GG]	.	.	8gg#X/L	16gg#\LL	<	.
.	.	.	.	.	16ff#\	.	.
.	.	.	.	8aa/	16aa\	.	.
.	.	.	.	.	16cc\JJ	.	.
4E-X/	.	.	.	8gg#/	16gg#\LL	.	.
.	.	.	.	.	16ff#\	.	.
.	.	.	.	8aa/J	16aa\	.	.
.	.	.	.	.	16cc\JJ	.	.
4D/	.	.	.	8aa/L	16aa\LL	.	.
.	.	.	.	.	16ff#\	.	.
.	.	.	.	8bb/	16bb\	.	.
.	.	.	.	.	16cc\JJ	.	.
4C/	.	.	.	8ccc/	16ccc\LL	.	.
.	.	.	.	.	16aa\	.	.
.	.	.	.	8ccc#X/J	16ccc#\	.	.
.	.	.	.	.	16ff#\JJ	[	.
=70	=70	=70	=70	=70	=70	=70	=70
8GG/ 8BB	4ryy	.	.	8eee/L	16eee\LL	.	.
.	.	.	.	.	16bb\	.	.
8r	.	.	.	8ddd/J	16ddd\	.	.
.	.	.	.	.	16gg\JJ	.	.
!LO:N:vis=2	!	!	!	!	!	!	!
4GG/	[2.GG\	.	.	8ccc/L	16ccc\LL	.	.
.	.	.	.	.	16gg\	.	.
.	.	.	.	8bb/J	16bb\	.	.
.	.	.	.	.	16dd\JJ	.	.
4G/	.	.	.	8aa/L	16aa\LL	.	.
.	.	.	.	.	16dd\	.	.
.	.	.	.	8gg/J	16gg\	.	.
.	.	.	.	.	16b\JJ	.	.
4Fn/	.	.	.	8ee/L	16ee\LL	.	.
.	.	.	.	.	16b\	.	.
.	.	.	.	8dd/J	16dd\	.	.
.	.	.	.	.	16b\JJ	.	.
=71	=71	=71	=71	=71	=71	=71	=71
4E/	1GG]	.	.	8dd/L	16dd\LL	.	.
.	.	.	.	.	16g\	>	.
.	.	.	.	8cc/J	16cc\	.	.
.	.	.	.	.	16e\JJ	.	.
2E-X/	.	.	.	8b/L	16b\LL	.	.
.	.	.	.	.	16g\	.	.
.	.	.	.	8a/J	16a\	.	.
.	.	.	.	.	16c\JJ	.	.
.	.	.	.	8g/L	16g\LL	.	.
.	.	.	.	.	16c\	.	.
.	.	.	.	8f#/J	16f#\	.	.
.	.	.	.	.	16A\JJ	.	.
4D/	.	.	.	8e/L	16e\LL	]	.
.	.	.	.	.	16c\	.	.
.	.	.	.	8d/J	16d\	.	.
.	.	.	.	.	16F#\JJ	.	.
=72	=72	=72	=72	=72	=72	=72	=72
!!linebreak:original
2ryy	[<2GG\	.	.	8a/L	16a\LL	.	.
.	.	.	.	.	16d\	.	.
.	.	.	.	8g/J	16g\	.	.
.	.	.	.	.	16B\JJ	.	.
.	.	.	.	8e/L	16e\LL	.	.
.	.	.	.	.	16B\	.	.
.	.	.	.	8d/J	16d\	.	.
.	.	.	.	.	16G\JJ	.	.
*	*	*	*	*v	*v	*	*
16GG/LL	2GG\]	.	.	2F#^>/ 2c	.	2 5
16E-X/	.	.	.	.	.	.
16A/	.	.	.	.	.	.
16E-/JJ	.	.	.	.	.	.
16B/LL	.	.	.	.	.	.
16E-/	.	.	.	.	.	.
16A/	.	.	.	.	.	.
16E-/JJ	.	.	.	.	.	.
=73	=73	=73	=73	=73	=73	=73
*	*	*	*	*^	*	*
2ryy	[<2GG\	.	.	8e/L	16e\LL	pp	.
.	.	.	.	.	16B\	.	.
.	.	.	.	8d/J	16d\	.	.
.	.	.	.	.	16G\JJ	.	.
!	!	!	!	!LO:TX:t=P:problem:mixed beam	!	!	!
.	.	.	.	8c/L	16c\LL	.	.
.	.	.	.	.	16G\	.	.
.	.	.	.	8B/J	16B\	.	.
.	.	.	.	.	16D</JJ	.	.
*	*	*	*	*v	*v	*	*
*	*	*	*	*clefF4	*	*
16GG/LL	2GG\]	.	.	(2C^\ 2F#	.	2 4
16E-X/	.	.	.	.	.	.
16A/	.	.	.	.	.	.
16E-/JJ	.	.	.	.	.	.
16B/LL	.	.	.	.	.	.
16E-/	.	.	.	.	.	.
16A/	.	.	.	.	.	.
16E-/JJ	.	.	.	.	.	.
*v	*v	*	*	*	*	*
=74	=74	=74	=74	=74	=74
4GG/	.	.	4BB\) 4G	.	.
4r	.	.	4r	.	.
*	*	*	*clefG2	*	*
4D\ 4A 4d	.	.	4a\ 4cc 4dd 4ff#	ff	.
4r	.	.	4r	.	.
=75	=75	=75	=75	=75	=75
*>A1	*	*	*>A1	*	*
4GG/ 4D 4G	.	.	4g\ 4b 4dd 4gg	.	.
4r	.	.	4r	.	.
4BBB/ 4FF# 4BB	.	.	4b\ 4dd#X 4ff# 4bb	.	.
4r	.	.	4r	.	.
=76:|!	=76:|!	=76:|!	=76:|!	=76:|!	=76:|!
*>A2	*	*	*>A2	*	*
4GG/ 4D 4G	.	.	4g\ 4b 4dd 4gg	.	.
4r	.	.	4r	.	.
4GGG/ 4DD 4GG	.	.	4dd\ 4ffn 4gg 4bb	.	.
4r	.	.	4r	.	.
*kcancel	*	*	*kcancel	*	*
=77||	=77||	=77||	=77||	=77||	=77||
!!pagebreak:original
*>B	*	*	*>B	*	*
*k[b-e-a-d-]	*	*	*k[b-e-a-d-]	*	*
*ped	*	*	*	*	*
8.AAA-\L 8.AA-\	.	.	16r	.	.
!	!	!	!	!LO:DY:t=ff con vigoro	!
.	.	.	(16bbn\LL	ff	.
.	.	.	16ccc\	.	.
16E-\Jk 16A-\ 16c\	.	.	16fff\JJ	.	.
[4E-\ [4A- [4c	.	.	16eee-\LL	.	.
.	.	.	16ccc\	.	.
.	.	.	16aa-\	.	.
.	.	.	16ff\JJ	.	.
8.E-\L] 8.A-] 8.c]	.	.	16ee-\LL	.	.
.	.	.	16bn\	.	.
.	.	.	16cc\	.	.
16E-\Jk 16A- 16c	.	.	16ff\JJ	.	.
[4E-\ [4A- [4c	.	.	16ee-\LL	.	.
.	.	.	16cc\	.	.
.	.	.	16a-\	.	.
.	.	.	16f\JJ	.	.
=78	=78	=78	=78	=78	=78
*Xped	*	*	*	*	*
16E-\LL] 16A-] 16c]	.	.	8e-/)	.	.
(16Bn\	.	.	.	.	.
16c\	.	.	8r	.	.
16f\JJ	.	.	.	.	.
16e-\LL	.	.	8a-'\ 8cc 8ee-	.	.
16d-\	.	.	.	.	.
16c\	.	.	8r	.	.
16B-X\JJ	.	.	.	.	.
16A-\LL	.	.	8cc'\ 8ee- 8aa-	.	.
16G\	.	.	.	.	.
16F\	.	.	8r	.	.
16E-\JJ	.	.	.	.	.
16D-/LL	.	.	8ee-'\ 8aa- 8ccc	.	.
16C/	.	.	.	.	.
16BB-/	.	.	8r	.	.
16AA-/JJ	.	.	.	.	.
=79	=79	=79	=79	=79	=79
*ped	*	*	*	*	*
8.BB-\L)	.	.	16r	.	.
.	.	.	(16ccc\LL	.	.
.	.	.	16ddd-\	.	.
16E-\Jk 16G 16d-	.	.	16ggg\JJ	.	.
[4E-\ [4G [4d-	.	.	16fff\LL	.	.
.	.	.	16ddd-\	.	.
.	.	.	16bb-\	.	.
.	.	.	16gg\JJ	.	.
8.E-\L] 8.G] 8.d-]	.	.	16ee-\LL	.	.
.	.	.	16cc\	.	.
.	.	.	16dd-\	.	.
16E-\Jk 16G 16d-	.	.	16gg\JJ	.	.
[4E-\ [4G [4d-	.	.	16ff\LL	.	.
.	.	.	16dd-\	.	.
.	.	.	16b-\	.	.
.	.	.	16g\JJ	.	.
=80	=80	=80	=80	=80	=80
!!linebreak:original
*Xped	*	*	*	*	*
16E-\LL] 16G] 16d-]	.	.	8e-/)	.	.
(16c\	.	.	.	.	.
16d-\	.	.	8r	.	.
16g\JJ	.	.	.	.	.
16f\LL	.	.	8b-'\ 8dd- 8gg	.	.
16e-\	.	.	.	.	.
16d-\	.	.	8r	.	.
16c\JJ	.	.	.	.	.
16B-\LL	.	.	8dd-'\ 8gg 8bb-	.	.
16A-\	.	.	.	.	.
16G\	.	.	8r	.	.
16F\JJ	.	.	.	.	.
16E-/LL	.	.	8ee-'\ 8gg 8ddd-	.	.
16D-/	.	.	.	.	.
16C/	.	.	8r	.	.
16BB-/JJ	.	.	.	.	.
=81	=81	=81	=81	=81	=81
*ped	*	*	*8va	*	*
8.CC\L) 8.C	.	.	16r	.	.
.	.	.	(16dddn\LL	.	.
.	.	.	16eee-\	.	.
16G-X\Jk 16An 16e-	.	.	16aaa-\JJ	.	.
[4G-\ [4A [4e-	.	.	16ggg-X\LL	.	.
.	.	.	16eee-\	.	.
.	.	.	16ccc\	.	.
.	.	.	16aan\JJ	.	.
*	*	*	*X8va	*	*
8.G-\L] 8.A] 8.e-]	.	.	16gg-\LL	.	.
.	.	.	16dd\	.	.
.	.	.	16ee-\	.	.
16G-\Jk 16A 16e-	.	.	16aan\JJ	.	.
[4G-\ [4A [4e-	.	.	16gg-\LL	.	.
.	.	.	16ee-\	.	.
.	.	.	16cc\	.	.
.	.	.	16a\JJ	.	.
=82	=82	=82	=82	=82	=82
*Xped	*	*	*	*	*
16G-\LL] 16A] 16e-]	.	.	8g-X/)	.	.
(16dn\	.	.	.	.	.
16e-\	.	.	8r	.	.
16a-\JJ	.	.	.	.	.
16g-X\LL	.	.	8ee-\ 8gg-X 8ccc	.	.
16f\	.	.	.	.	.
16e-\	.	.	8r	.	.
16d-X\JJ	.	.	.	.	.
16c\LL	.	.	8gg-'\ 8ccc 8eee-	.	.
16B-\	.	.	.	.	.
16An\	.	.	8r	.	.
16G-X\JJ	.	.	.	.	.
16F\LL	.	.	8ccc'\ 8eee- 8ggg-X	.	.
16E-\	.	.	.	.	.
16D-\	.	.	8r	.	.
16C\JJ	.	.	.	.	.
=83	=83	=83	=83	=83	=83
!!linebreak:original
*	*	*	*^	*	*
*ped	*	*	*	*	*	*
8.D-\L)	.	.	16r	2ryy	.	.
.	.	.	(16aan\LL	.	.	.
.	.	.	16bb-\	.	.	.
[16D-\Jk [16F [16B-	.	.	16gggn\JJ	.	.	.
4D-\_ 4F_ 4B-_	.	.	16fff\LL	.	.	.
.	.	.	16ddd-\	.	.	.
.	.	.	16bb-\	.	.	.
.	.	.	16gg\JJ)	.	.	.
8D-\] 8F] 8B-]	.	.	(8.gg/L	16gg\LL	.	.
.	.	.	.	16g\	.	.
8r	.	.	.	16b-\	.	.
.	.	.	(16gg/Jk	16gg\JJ	.	.
4r	.	.	8.ff/L)	16ff\LL	.	.
.	.	.	.	16g\	.	.
.	.	.	.	16b-\	.	.
.	.	.	(16ff/Jk	16ff\JJ	.	.
=84	=84	=84	=84	=84	=84	=84
4r	.	.	8.dd-/L)	16dd-\LL	.	.
.	.	.	.	16f\	.	.
.	.	.	.	16b-\	.	.
*Xped	*	*	*	*	*	*
.	.	.	(16dd-/Jk	16dd-\JJ	>	.
(4CC'/	.	.	8.b-/L)	16b-\LL	.	.
.	.	.	.	16d-\	.	.
.	.	.	.	16f\	.	.
.	.	.	(16b-/Jk	16b-\JJ	.	.
2C/)	.	.	8.a-/L)	16a-\LL	.	.
.	.	.	.	16c\	.	.
.	.	.	.	16en\	.	.
.	.	.	(16a-/Jk	16a-\JJ	]	.
.	.	.	8.g/L)	16g\LL	.	.
.	.	.	.	16B-\	.	.
.	.	.	.	16e\	.	.
.	.	.	(16g/Jk)	16g\JJ	.	.
*	*	*	*v	*v	*	*
=85	=85	=85	=85	=85	=85
(<16FF/LL	.	.	8A-/) 8f	.	.
16C/	.	.	.	.	.
!	!	!	!LO:TX:b:i:t=dolce	!	!
16F/	.	.	(8gg\L	.	.
16A-/JJ	.	.	.	.	.
16c\LL	.	.	8aa-\	.	.
16A-\	.	.	.	.	.
16F\	.	.	8ddd-\J	.	.
16C\JJ	.	.	.	.	.
16FF/LL	.	.	8ccc\L	.	.
16C/	.	.	.	.	.
16F/	.	.	8aa-\	.	.
16A-/JJ	.	.	.	.	.
16c\LL	.	.	8ff\	.	.
16A-\	.	.	.	.	.
16F\	.	.	8cc\J)	.	.
16C\JJ)	.	.	.	.	.
=86	=86	=86	=86	=86	=86
!!linebreak:original
*^	*	*	*^	*	*
*	*	*	*	*	*^	*	*
(4D-/	16D-\LL	.	.	(4cc/	2f\ 2a-	2ryy	<	.
.	16F\	.	.	.	.	.	.	.
.	16A-\	.	.	.	.	.	.	.
.	16c\JJ	.	.	.	.	.	.	.
4Dn/	16Dn\LL	.	.	8.b-/L)	.	.	.	.
.	16F\	.	.	.	.	.	.	.
.	16A-\	.	.	.	.	.	.	.
.	16B-\JJ	.	.	(16b-/Jk	.	.	[[	.
4E-/	16E-\LL	.	.	4.ff/	2b-\	4a-\	>	.
.	16A-\	.	.	.	.	.	.	.
.	16B-\	.	.	.	.	.	.	.
.	16d-X\JJ	.	.	.	.	.	.	.
4E-/	16E-\LL	.	.	.	.	4g\	.	.
.	16G\	.	.	.	.	.	.	.
.	16B-\	.	.	8ee-/)	.	.	]	.
.	16d-\JJ)	.	.	.	.	.	.	.
*v	*v	*	*	*	*	*	*	*
*	*	*	*v	*v	*v	*	*
=87	=87	=87	=87	=87	=87
(16AA-\LL	.	.	8r	.	.
16E-\	.	.	.	.	.
16A-\	.	.	(8bbn\L	p	.
16c\JJ	.	.	.	.	.
16e-\LL	.	.	8ccc\	.	.
16c\	.	.	.	.	.
16A-\	.	.	8fff\J	.	.
16E-\JJ	.	.	.	.	.
16AA-\LL	.	.	8eee-\L	.	.
16E-\	.	.	.	.	.
16A-\	.	.	8ccc\	.	.
16c\JJ	.	.	.	.	.
16e-\LL	.	.	8aa-\	.	.
16c\	.	.	.	.	.
16A-\	.	.	8ee-\J)	.	.
16E-\JJ)	.	.	.	.	.
=88	=88	=88	=88	=88	=88
*^	*	*	*^	*	*
*	*	*	*	*	*^	*	*
(4F/	16F\LL	.	.	(4ee-/	(4a-\ [4cc	2ryy	<	.
.	16A-\	.	.	.	.	.	.	.
.	16c\	.	.	.	.	.	.	.
.	16e-\JJ	.	.	.	.	.	.	.
4F#X/	16F#\LL	.	.	8.ddn/L)	4an\) 4cc]	.	.	.
.	16An\	.	.	.	.	.	.	.
.	16c\	.	.	.	.	.	.	.
.	16dn\JJ	.	.	(16dd/Jk	.	.	[	.
4G/	16G\LL	.	.	4.gg/	2dd\	4cc\	>	.
.	16c\	.	.	.	.	.	.	.
.	16d\	.	.	.	.	.	.	.
.	16fn\JJ	.	.	.	.	.	.	.
4G/	16G\LL	.	.	.	.	4bn\	.	.
.	16Bn\	.	.	.	.	.	.	.
.	16d\	.	.	8ff/	.	.	]	.
.	16f\JJ)	.	.	.	.	.	.	.
*	*	*	*	*v	*v	*v	*	*
=89	=89	=89	=89	=89	=89	=89
!!linebreak:original
8ryy	8G\	.	.	16b-X\LL) 16dd-X 16ee-	.	.
.	.	.	.	(16ee-\	.	.
8B-/L	[4.G\	.	.	16bb-\	.	.
.	.	<	.	16fff-X\JJ	.	.
8d-/	.	.	.	16eee-\LL	.	.
.	.	.	.	16ddd-\	.	.
8f-X/J	.	[	.	16bb-\	.	.
.	.	.	.	16ff-X\JJ	.	.
8e-/	8G\]	.	.	16ee-/LL	.	.
.	.	.	.	16dd-/	.	.
8r	8ryy	.	.	16b-/	.	.
.	.	.	.	16e-/JJ	.	.
4ryy	8.AA-^\L	.	.	8.F-X^>/L) 8.B- 8.d- 8.f-X	.	.
.	(16AA-\Jk	.	.	(16F-/Jk 16B- 16d- 16f-	.	.
=90	=90	=90	=90	=90	=90	=90
!	!	!	!	!LO:TX:t=P:problem:mixed beam	!	!
8r	8GG\)	.	.	16E-/LL) 16B-/ 16d-/ 16e-/	.	.
.	.	.	.	(16ee-\	.	.
8B-/L	[4.G\	.	.	16bb-\	.	.
.	.	<	.	16fff-X\JJ	.	.
8d-/	.	.	.	16eee-\LL	.	.
.	.	.	.	16ddd-\	.	.
8f-X/J	.	[[	.	16bb-\	.	.
.	.	.	.	16ff-X\JJ	.	.
8e-/	8G\]	.	.	16ee-\LL	.	.
.	.	.	.	16dd-\	.	.
8r	8r	.	.	16b-\	.	.
.	.	.	.	16e-\JJ	.	.
4ryy	8.BB-^\L	.	.	8.G-X^>/L) 8.c 8.e- 8.g-X	.	.
.	(16BB-\Jk	.	.	(<16G-/Jk 16c 16e- 16g-	.	.
=91	=91	=91	=91	=91	=91	=91
!	!	!	!	!LO:TX:t=P:problem:mixed beam	!	!
8r	8AAn\)	.	.	(16F/LL) 16c/ 16e-/ 16f/	.	.
.	.	.	.	16ff\	.	.
8c/L	[4.An\	.	.	16ccc\	.	.
.	.	<	.	(16ggg-X\JJ	.	5
8e-/	.	.	.	16fff\LL)	.	5
.	.	.	.	16eee-\	.	.
8g-X/J	.	[[	.	16ccc\	.	.
.	.	.	.	16gg-X\JJ	.	1
8f/	8A\]	.	.	16ff\LL	.	5
.	.	.	.	16ee-\	.	.
8r	8r	.	.	16cc\	.	.
.	.	.	.	16f\JJ	.	.
4ryy	8.BB-^\L	.	.	8.G-X^/L) 8.c 8.e- 8.g-X	.	.
.	(16BB-\Jk	.	.	16G-/Jk 16c 16e- 16g-	.	.
=92	=92	=92	=92	=92	=92	=92
!!linebreak:original
!	!	!	!	!LO:TX:t=P:problem:mixed beam	!	!
8ryy	8AAn\)	.	.	16F/LL 16c/ 16e-/ 16f/	.	.
.	.	.	.	16ff\	.	.
8c/L	[4.An\	.	.	16ccc\	<	.
.	.	.	.	16ggg-X\JJ	.	.
8e-/	.	.	.	16fff\LL	.	.
.	.	.	.	16eee-\	.	.
8g-X/J	.	.	.	16ccc\	[	.
.	.	.	.	16gg-X\JJ	.	.
8f/	8A\]	.	.	16ff\LL	.	.
.	.	.	.	16ee-\	.	.
8r	8r	.	.	16cc\	.	.
.	.	.	.	16f\JJ	.	.
4ryy	8.C^\L	.	.	8.A-X^>/L 8.dn 8.f 8.a-X	.	.
.	(16C\Jk	.	.	(16A-/Jk 16d 16f 16a-	.	.
*v	*v	*	*	*	*	*
=93	=93	=93	=93	=93	=93
8BBn\)	.	.	16G/LL) 16dn 16f 16g	.	.
.	.	.	(16g/	f	.
(8Bn\L	.	.	16ddn/	.	.
.	.	.	16ff/JJ	.	.
8dn\	.	.	16gg/LL	.	.
.	.	.	16g/J	.	.
8c^\J [8f	.	.	8a-^>/J [8dd 8aa-	.	.
8B\L) 8f]	.	.	16g'/LL) 16dd] 16gg	.	.
.	.	.	(16g/	.	.
(8B\	.	.	16dd/	.	.
.	.	.	16ff/JJ	.	.
8d\	.	.	16gg\LL	.	.
.	.	.	16g\J	.	.
8A-^\J [<8f	.	.	(<8cc^\J [<8ff 8ccc	.	.
=94	=94	=94	=94	=94	=94
8G\) 8f]	.	.	16bn\LL)) 16ff] 16bbn'	.	.
.	.	.	(16g\	.	.
((8Bn\L	.	.	16ddn\	.	.
.	.	.	16ff\JJ	.	.
8dn\J)	.	.	16gg\LL	.	.
.	.	.	16g\J)	.	.
8c^<\ [8fL	.	.	(8a-^\J 8dd 8aa-	.	.
8BnX\) 8f]J	.	.	16g'\LL) 16dd 16gg	.	.
.	.	.	(16g\	.	.
8B\L	.	.	16dd\	.	.
.	.	.	16ff\JJ	.	.
8d\J	.	.	16gg\LL	.	.
.	.	.	16g\J)	.	.
8A-\L [8f	.	.	(8cc^\J 8ff 8ccc	.	.
=95	=95	=95	=95	=95	=95
!!pagebreak:original
8G\J 8f]	.	.	8bn\L) 8ff 8bbn	.	.
*	*	*	*clefF4	*	*
8r	.	.	(16D-\L	.	.
.	.	.	16C#X\JJ	.	.
4r	.	.	16D-\LL	.	.
.	.	.	16En\	.	.
.	.	.	16F\	.	.
.	.	.	16An\JJ	.	.
2r	.	.	16G\LL	.	.
.	.	.	16A\	.	.
.	.	.	16Bn\	.	.
.	.	.	16en\JJ	.	.
*	*	*	*clefG2	*	*
.	.	.	16dn/LL	.	.
.	.	.	16e/	.	.
.	.	.	16f/	.	.
.	.	.	16an/JJ	.	.
=96	=96	=96	=96	=96	=96
1r	.	.	16g/LL)	.	.
.	.	.	(16dn/	.	.
.	.	.	16c#X/	p	.
.	.	.	16d/JJ	>	.
.	.	.	16e-/LL	.	.
.	.	.	16en/	.	.
.	.	.	16f/	.	.
.	.	.	16f#X/JJ	.	.
.	.	.	16g/LL	.	.
.	.	.	16g#X/	.	.
.	.	.	16an/	.	.
.	.	.	16b-/JJ	.	.
.	.	.	16bn\LL	.	.
.	.	.	16cc\	.	.
.	.	.	16cc#X\	.	.
.	.	.	16ddn\JJ)	]	.
=97||	=97||	=97||	=97||	=97||	=97||
*k[f#]	*	*	*k[f#]	*	*
8r	.	.	(>2d#X/ 2b 2dd#X	pp	.
*ped	*	*	*	*	*
!	!	!	!LO:TX:b:i:t=sotto voce	!	!
8FF#/L	.	.	.	.	.
8BB/	.	.	.	.	.
8D#X/J	.	.	.	.	.
8F#\L	.	.	[4d#/ [4b	.	.
8B\	.	.	.	.	.
8d#X\	.	.	4d#/]) 4b] 4ff#	.	.
*Xped	*	*	*	*	*
8f#\J	.	.	.	.	.
=98	=98	=98	=98	=98	=98
!!linebreak:original
*	*	*	*^	*	*
8r	.	.	4ff#/	[<2.g#X\ [>2.b	.	.
8GG#X/L	.	.	.	.	.	.
8AA#X/	.	.	2ee/	.	.	.
8BB#X/J	.	.	.	.	.	.
8C#X/L	.	.	.	.	.	.
8BB#/	.	.	.	.	.	.
8C#/	.	.	4b/_ [4dd#X	4g#\_	.	.
8D#X/J	.	.	.	.	.	.
=99	=99	=99	=99	=99	=99	=99
8E\L	.	.	4b/] 4dd#]	4g#\]	.	.
8D#X\	.	.	.	.	.	.
!	!LO:HP:a	!	!	!	!LO:HP:a	!
8E\	<	.	(>4g#X'/ 4b 4cc#X	4ryy	<	.
8E#X\J	.	.	.	.	.	.
8F#\L	.	.	4f#'/ 4b 4cc#	2ryy	.	.
8E#\	.	.	.	.	.	.
8F#\	.	.	4e#X'/) 4b 4cc#	.	[	.
8G#X\J	[	.	.	.	.	.
=100	=100	=100	=100	=100	=100	=100
*^	*	*	*	*	*	*
!	!	!	!	!	!	!LO:DY:a	!
8F#/L	[2F#\	.	.	[2cc#X/	8f#\L 8a#X	> >	.
8B/	.	.	.	.	8e#X\	.	.
8A#X/	.	.	.	.	8f#\	.	.
8G#X/J	.	.	.	.	8g#X\J	.	.
8A#/	8F#\L]	.	.	8cc#/L]	8f#\	.	.
8ryy	(8E\	.	.	(8cc#/	8ryy	.	.
4ryy	8D#X\	.	.	8dd#X/	4ryy	]	.
.	8C#X\J	.	.	8ee/J	.	]	.
*	*	*	*	*v	*v	*	*
=101	=101	=101	=101	=101	=101	=101
8D#X/)	(2D#\	.	.	4ff#\)	.	.
4F#/	.	.	.	.	.	.
!	!	!	!	!LO:TX:b:i:t=espressivo	!	!
.	.	.	.	(4f#\ 4ff#	.	.
4F#/	.	.	.	.	.	.
.	2BB#X\	.	.	4g#X\ 4gg#X	.	.
4F#/	.	.	.	.	.	.
.	.	.	.	([4d#X/ [4dd#X	.	.
[8F#/	.	.	.	.	.	.
=102	=102	=102	=102	=102	=102	=102
!!linebreak:original
8F#/]	2C#X\	.	.	8d#/L] 8dd#]	.	.
4F#/	.	.	.	8e/J 8ee	.	.
.	.	.	.	2a#X\)) 2aa#X	.	.
4F#/	.	.	.	.	.	.
.	2C##X\	.	.	.	.	.
4F#/	.	.	.	.	.	.
.	.	.	.	[4g#X\ [4gg#X	.	.
[8F#/)	.	.	.	.	.	.
=103	=103	=103	=103	=103	=103	=103
8F#/]	(2D#X\	.	.	8g#\L] 8gg#]	.	.
4F#/	.	.	.	8f#\ 8ff#	.	.
!	!	!	!	!	!LO:HP:t=cresc.:ext=ud	!
.	.	.	.	8f#\ 8ff#	<	.
4F#/	.	.	.	[8f#\J [8ff#	.	.
.	2BB\	.	.	8f#\L] 8ff#]	.	.
4F#/	.	.	.	8f#\ 8ff#	.	.
.	.	.	.	8g#X\ 8gg#X	.	.
[8F#/	.	.	.	[8d#X\J [8dd#X	.	.
=104	=104	=104	=104	=104	=104	=104
8F#/]	2.C#X\	.	.	8d#/L] 8dd#]	.	.
4F#/	.	.	.	8e'/J 8ee	.	.
.	.	.	.	([4ee\ [4eee	.	.
4F#/	.	.	.	.	.	.
.	.	.	.	8ee\L] 8eee]	.	.
4F#/	.	.	.	8cc#X\ 8ccc#X	.	.
.	4C##X\	.	.	8a#X\ 8aa#X	.	.
8F#/	.	.	.	[8g#X\J [8gg#X	.	.
=105	=105	=105	=105	=105	=105	=105
*ped	*	*	*	*	*	*
8D#X/	2D#\)	.	.	8g#\L]) 8gg#]	.	.
4F#/ 4B	.	.	.	8f#'\J 8ff#	[ f	.
.	.	.	.	[4ff#\ [4fff#	.	.
*Xped	*	*	*	*	*	*
4F#/ 4B	.	.	.	.	.	.
*ped	*	*	*	*tuplet	*	*
!	!	!	!	!LO:TUP:a	!	!
.	8BB\	.	.	12ff#\L] 12fff#]	.	.
.	.	.	.	12ddd#X\	.	.
8ryy	4F#\ 4G#X 4d#X	.	.	.	.	.
.	.	.	.	12aan\J	.	.
!	!	!	!	!LO:TUP:a	!	!
4ryy	.	.	.	12gg#X\L	.	.
.	.	.	.	12ff#\	.	.
*Xped	*	*	*	*	*	*
.	8BB#X\	.	.	.	.	.
.	.	.	.	(12dd#X\J	.	.
*v	*v	*	*	*	*	*
=106	=106	=106	=106	=106	=106
!!linebreak:original
*ped	*	*	*	*	*
8C#X\	.	.	8dd\L)	.	.
4A#X\ 4c#X 4f#	.	.	8cc#X\J	.	.
.	.	.	[4aa#X\	.	.
8A#\ 8c# 8f#	.	.	.	.	.
*	*	*	*Xtuplet	*	*
8CC#X/	.	.	12aa#\L]	.	.
.	.	.	(12ff#\	.	.
8r	.	.	.	.	.
.	.	.	12dd#X\J	.	.
4r	.	.	12cc#/L	.	.
.	.	.	12a#X/	.	.
.	.	.	12f#/J	.	.
=107	=107	=107	=107	=107	=107
*^	*	*	*^	*	*
4r	4ryy	.	.	8d#X/L)	4ryy	.	.
.	.	.	.	(8c#X/J	.	.	.
*Xped	*	*	*	*	*	*	*
!	!	!	!	!	!	!LO:HP:a	!
8r	8ryy	.	.	(4b/)	8rc	>	.
(8C#X/	[8C#\	.	.	.	8c#\	.	.
8F#/L	2C#\]	.	.	4a#X/	8d#\L	.	.
8E#X/	.	.	.	.	8c#\	.	.
8F#/	.	.	.	4g#X/	8d#\	.	.
8B/J	.	.	.	.	8e#X\J	.	.
*	*	*	*	*v	*v	*	*
=108	=108	=108	=108	=108	=108	=108
8A#X/)	8F#\L	.	.	8f#/)	]	.
8ryy	(8FF#\	>	.	8r	>	.
4ryy	8AA#X\	.	.	4r	.	.
.	8C#X\J	.	.	.	.	.
2ryy	8F#\L	.	.	2r	]]	.
.	8A#\	.	.	.	.	.
.	8c#X\	.	.	.	.	.
.	8e\J	]]	.	.	.	.
*v	*v	*	*	*	*	*
=109	=109	=109	=109	=109	=109
8B\L) 8dn	.	.	4r	pp	.
16B\L	.	.	.	.	.
16F#\JJ	.	.	.	.	.
!	!	!	!	!LO:HP:a	!
16BB\LL	.	.	(4dn/ 4ddn	<	.
16F#\	.	.	.	.	.
16G\	.	.	.	.	.
16F#\JJ	.	.	.	.	.
16D\LL	.	.	4B/ 4b	.	.
16F#\	.	.	.	.	.
16G\	.	.	.	.	.
16F#\JJ	.	.	.	.	.
16G\LL	.	.	4f#\) [4ff#	.	.
16F#\	.	.	.	.	.
16G\	.	.	.	.	.
16F#\JJ	.	.	.	.	.
=110	=110	=110	=110	=110	=110
!!linebreak:original
*	*	*	*^	*	*
16C#X\LL	.	5	(4g\ 4ff#]	2.ryy	[	.
16B\	.	1	.	.	.	.
!	!	!	!	!	!LO:HP:a	!
16c#X\	.	2	.	.	>	.
16B\JJ	.	.	.	.	.	.
16G#X\LL	.	3	4g#X\ 4ee#X	.	.	.
16B\	.	.	.	.	.	.
16c#\	.	.	.	.	.	.
16B\JJ	.	.	.	.	.	.
16F#\LL	.	5	4a\ 4een	.	.	.
16e\	.	.	.	.	.	.
16f#\	.	.	.	.	.	.
16d\JJ	.	.	.	.	.	.
8F#\	.	.	8dd/L	16a#X\LL	.	.
.	.	.	.	16e\	.	.
8r	.	.	8cc#X/J	16a#\	]	.
.	.	.	.	16e\JJ	.	.
*	*	*	*v	*v	*	*
=111	=111	=111	=111	=111	=111
8r	.	.	8d/) 8b	.	.
16G\LL	.	.	8r	.	.
16D\JJ	.	.	.	.	.
16GG\LL	.	.	(4B/ 4b	.	.
16D\	.	.	.	.	.
16E\	.	.	.	.	.
16D\JJ	.	.	.	.	.
16BB\LL	.	.	4G/ 4g	.	.
16D\	.	.	.	.	.
16E\	.	.	.	.	.
16D\JJ	.	.	.	.	.
16E\LL	.	.	4d/ [4dd	.	.
16D\	.	.	.	.	.
16E\	.	.	.	.	.
16D\JJ	.	.	.	.	.
=112	=112	=112	=112	=112	=112
*	*	*	*^	*	*
16AA\LL	.	.	4e-X/) 4dd]	2.ryy	.	.
16G\	.	.	.	.	.	.
16A\	.	.	.	.	.	.
16G\JJ	.	.	.	.	.	.
16En\LL	.	.	(>4en/ 4cc#X	.	.	.
16G\	.	.	.	.	.	.
16A\	.	.	.	.	.	.
16G\JJ	.	.	.	.	.	.
!	!	!	!	!	!LO:HP:a	!
16D\LL	.	.	4fn/ 4ccn	.	>	.
16c\	.	.	.	.	.	.
16d\	.	.	.	.	.	.
16c\JJ	.	.	.	.	.	.
8D/L	.	.	8b/L	16f#X\LL	.	.
.	.	.	.	16d\	.	.
8C/J	.	.	8a/J	16f#\	]	.
.	.	.	.	[16d\JJ	.	.
*	*	*	*v	*v	*	*
=113	=113	=113	=113	=113	=113
!!linebreak:original
*^	*	*	*	*	*
8BB/	2BB\	.	.	8d/]) 8g	.	.
4D/	.	.	.	8r	.	.
!	!	!	!	!	!LO:HP:t=crescendo sempre e stringendo	!
.	.	.	.	(>4d/ 4dd	<	.
4D/	.	.	.	.	.	.
.	2GG#X\	.	.	4e/ 4ee	.	.
4D/	.	.	.	.	.	.
.	.	.	.	[4B/ [4b	.	.
[8D/	.	.	.	.	.	.
=114	=114	=114	=114	=114	=114	=114
8D/]	2AA\	.	.	8B/L] 8b]	.	.
4D/	.	.	.	8c/J) 8cc	.	.
.	.	.	.	2f#\ 2ff#	.	.
4D/	.	.	.	.	.	.
.	2AA#X\	.	.	.	.	.
4D/	.	.	.	.	.	.
.	.	.	.	[4e/ [4ee	.	.
[8D/	.	.	.	.	.	.
=115	=115	=115	=115	=115	=115	=115
8D/]	1BB	.	.	8e/L] 8ee]	.	.
4D/	.	.	.	(8d'/ 8dd	.	.
.	.	.	.	8d'/ 8dd	.	.
4D/	.	.	.	8d'/J) 8dd	.	.
.	.	.	.	(4g\ 4gg	.	.
4G/	.	.	.	.	.	.
.	.	.	.	[4d#X/ [4dd#X	.	.
[8G/	.	.	.	.	.	.
=116	=116	=116	=116	=116	=116	=116
8G/]	2C\	.	.	8d#/L] 8dd#]	.	.
4G/	.	.	.	8e/J 8ee	.	.
.	.	.	.	2a\) 2aa	.	.
4G/	.	.	.	.	.	.
.	2C#X\	.	.	.	.	.
4G/	.	.	.	.	.	.
.	.	.	.	[4e#X/ [4ee#X	.	.
[8G/	.	.	.	.	.	.
=117	=117	=117	=117	=117	=117	=117
!!linebreak:original
8G/]	4D\	.	.	8e#\L] 8ee#]	.	.
4F#/	.	.	.	(8f#\ 8ff#	.	.
.	4D#X\	.	.	8b\) 8bb	.	.
4A/	.	.	.	([8f#\J [8ff#	.	.
.	2E\	.	.	8f#\L] 8ff#]	.	.
4G/	.	.	.	8g\ 8gg	.	.
.	.	.	.	8cc\) 8ccc	.	.
[8c/	.	.	.	[8g#X\J [8gg#X	.	.
=118	=118	=118	=118	=118	=118	=118
8c/]	4Fn\	.	.	8g#\L] 8gg#]	.	.
4c/	.	.	.	(8a\ 8aa	.	.
.	4F#X\	.	.	8dd\) 8ddd	.	.
4c/	.	.	.	[8a#X\J [8aa#X	.	.
.	4G\	.	.	8a#\L] 8aa#]	.	.
4B/	.	.	.	(8b\ 8bb	.	.
.	4G#X\	.	.	8ee\) 8eee	.	.
[8e/	.	.	.	8b\J 8bb	.	.
=119	=119	=119	=119	=119	=119	=119
*ped	*	*	*	*	*	*
8e/]	8A\	.	.	16r	.	.
*	*	*	*	*8va	*	*
.	.	.	.	(16eee\LL	ff	.
8r	8ryy	.	.	16fff#\	.	.
.	.	.	.	16dddd\JJ	.	.
*clefG2	*	*	*	*	*	*
[4A/ [4c [<4e [4f#	4ryy	.	.	16cccc\LL	.	.
.	.	.	.	16aaa\	.	.
.	.	.	.	16fff#\	.	.
.	.	.	.	16eee\JJ	.	.
*v	*v	*	*	*	*	*
*	*	*	*X8va	*	*
*^	*	*	*	*	*
8A/] 8c] 8e] 8f#]	2ryy	.	.	16ccc\LL	.	.
.	.	.	.	16ee\	.	.
4A/ 4c 4e 4f#	.	.	.	16ff#\	.	.
.	.	.	.	16ddd\JJ	.	.
.	.	.	.	16ccc\LL	.	.
.	.	.	.	16aa\	.	.
[8A/ [8c [<8e [8f#	.	.	.	16ff#\	.	.
.	.	.	.	16ee\JJ	.	.
*v	*v	*	*	*	*	*
=120	=120	=120	=120	=120	=120
*Xped	*	*	*	*	*
8A/] 8c] 8e] 8f#]	.	.	8cc\)	.	.
(8c/L	.	.	(8cc\L 8ccc	.	.
8c/	.	.	8cc\ 8ccc	.	.
8c/J	.	.	8cc\J 8ccc	.	.
4.f#/	.	.	4.ff#\ 4.fff#	.	.
8e/)	.	.	8ee\) 8eee	.	.
=121	=121	=121	=121	=121	=121
!!pagebreak:original
*ped	*	*	*	*	*
8A#X/	.	.	16r	.	.
*	*	*	*8va	*	*
.	.	.	(16ggg\LL	.	.
8r	.	.	16cccc#X\	.	.
.	.	.	16ffff#\JJ	.	.
[4A#X/ [4c [4e [4g	.	.	16eeee\LL	.	.
.	.	.	16cccc#\	.	.
.	.	.	16ggg\	.	.
.	.	.	16eee\JJ	.	.
*	*	*	*X8va	*	*
8A#/] 8c] 8e] 8g]	.	.	16ccc#\LL	.	.
.	.	.	16gg\	.	.
4A#/ 4c 4e 4g	.	.	16ccc#\	.	.
.	.	.	16fff#\JJ	.	.
.	.	.	16eee\LL	.	.
.	.	.	16ccc#\	.	.
[8A#/ [8c [8e [8g	.	.	16gg\	.	.
.	.	.	16ee\JJ	.	.
=122	=122	=122	=122	=122	=122
*Xped	*	*	*	*	*
8A#/] 8c] 8e] 8g]	.	.	8cc#X\)	.	.
(8c#X/L	.	.	(8cc#\L 8ccc#X	.	.
8c#/	.	.	8cc#\ 8ccc#	.	.
8c#/J	.	.	8cc#\J 8ccc#	.	.
4.g/	.	.	4.gg\ 4.ggg	.	.
8e/	.	.	8ee\) 8eee	.	.
=123	=123	=123	=123	=123	=123
8B/)	.	.	16r	.	.
.	.	.	(16ff#\LL	pp	.
8r	.	.	16gg\	.	.
.	.	.	16ccc\JJ	.	.
4r	.	.	16bb\LL	.	.
.	.	.	16gg\	.	.
.	.	.	16ee\	.	.
.	.	.	16b\JJ)	.	.
*clefF4	*	*	*	*	*
16r	.	.	(8g/	.	.
(16e\LL	.	.	.	.	.
16c\	.	.	4f#/)	.	.
16B\JJ	.	.	.	.	.
16A\LL	.	.	.	.	.
16d#X\	.	.	.	.	.
16c\	.	.	(8cc\	.	.
16A\JJ	.	.	.	.	.
=124	=124	=124	=124	=124	=124
16G\LL	.	.	8b\L	.	.
16B\	.	.	.	.	.
16d#X\	.	.	8dd#X\	.	.
16B\JJ	.	.	.	.	.
16f#\LL	.	.	8.ff#\	.	.
16B\	.	.	.	.	.
16e\	.	.	.	.	.
16B\JJ	.	.	16ee\Jk)	.	.
16F#\LL	.	.	(8ee\	.	.
16A\	.	.	.	.	.
16d#\	.	.	4dd#\)	.	.
16A\JJ	.	.	.	.	.
16B\LL	.	.	.	.	.
16A\	.	.	.	.	.
16B\	.	.	[8b\	.	.
16A\JJ)	.	.	.	.	.
=125	=125	=125	=125	=125	=125
!!linebreak:original
!	!	!	!	!LO:HP:t=cres-scen-do:ext=ud:ext=ud	!
(16G\LL	.	.	8b\]	<	.
16B\	.	.	.	.	.
16c\	.	.	(4e/ 4ee	.	.
16B\JJ	.	.	.	.	.
16F#\LL	.	.	.	.	.
16c\	.	.	.	.	.
16B\	.	.	4d#X/ 4dd#X	.	.
16A\JJ	.	.	.	.	.
16Fn\LL	.	.	.	.	.
16A\	.	.	.	.	.
16B\	.	.	4dn/ 4ddn	.	.
16A\JJ	.	.	.	.	.
16E\LL	.	.	.	.	.
16B\	.	.	.	.	.
16A\	.	.	[8c#X/ [8cc#X	.	.
16G\JJ	.	.	.	.	.
=126	=126	=126	=126	=126	=126
16E\LL	.	.	8c#/] 8cc#]	.	.
16G\	.	.	.	.	.
16A\	.	.	4cn/ 4ccn	.	.
16G\JJ	.	.	.	.	.
16E\LL	.	.	.	.	.
16G\	.	.	.	.	.
16F#\	.	.	4A#X/ 4a#X	.	.
16E\JJ	.	.	.	.	.
16D#X\LL	.	.	.	.	.
16E\	.	.	.	.	.
16D#\	.	.	4B/ 4b	.	.
16C\JJ	.	.	.	.	.
16BB/LL	.	.	.	.	.
16AA/	.	.	.	.	.
16GG/	.	.	8An/ 8an	.	.
16FF#/JJ)	.	.	.	.	.
=127	=127	=127	=127	=127	=127
(16EE\LL	.	.	8G/) 8g	[ f	.
16F#\	.	.	.	.	.
16G\	.	.	8r	.	.
16c\JJ	.	.	.	.	.
!	!	!	!	!LO:DY:a	!
16B\LL	.	.	4e/ 4g 4b 4ee	sf	.
16G\	.	.	.	.	.
16E\	.	.	.	.	.
16BB\JJ)	.	.	.	.	.
(<8GG/	.	.	4r	.	.
4FF#/	.	.	.	.	.
!	!	!	!	!LO:HP:a	!
.	.	.	(((4A#X/ [4e 4f# 4a#X	>	.
8C/	.	.	.	.	.
=128	=128	=128	=128	=128	=128
16BB\LL)	.	.	8B/))) 8e] 8g 8b	]	.
(16F#\	.	.	.	.	.
16G\	.	.	8r	.	.
16c\JJ	.	.	.	.	.
!	!	!	!	!LO:DY:a	!
16B\LL	.	.	4g'\ 4b 4ee 4gg	sf	.
16G\	.	.	.	.	.
16E\	.	.	.	.	.
16BB\JJ)	.	.	.	.	.
(8GG/	.	.	4r	.	.
4FF#/	.	.	.	.	.
.	.	.	4A#X/ 4e 4a#X	.	.
[8C/)	.	.	.	.	.
=129	=129	=129	=129	=129	=129
!!linebreak:original
!	!	!	!LO:TX:a:t=crescendo molto:i	!LO:DY:a	!
8C/]	.	.	4An/ 4d#X 4an	<	.
(4BB/	.	.	.	.	.
.	.	.	4G#X/ 4dn 4g#X	[	.
4BBB/ 4BB	.	.	.	.	.
.	.	.	4d/ 4g# 4ddn	.	.
4FFn/) 4Fn	.	.	.	.	.
.	.	.	4c/ 4a 4cc	.	.
[8EE/ [8E	.	.	.	.	.
=130	=130	=130	=130	=130	=130
8EE/] 8E]	.	.	4B/ 4f# 4b	.	.
(4DD#X/ 4D#X	.	.	.	.	.
.	.	.	4A/ 4f# 4a	.	.
4DDn/ 4Dn	.	.	.	.	.
.	.	.	4f#\ 4a 4ff#	.	.
4CC#X/ 4C#X	.	.	.	.	.
.	.	.	(4e/ 4a#X 4ee	.	.
8CCn/ 8Cn	.	.	.	.	.
=131	=131	=131	=131	=131	=131
*	*	*	*^	*	*
*ped	*	*	*	*	*	*
8BBB/) 8BB	.	.	16d#X/LL) 16b 16dd#X	2ryy	pp	.
.	.	.	16a/	.	.	.
8r	.	.	16dd#/	.	.	.
.	.	.	16gg#X/JJ	.	.	.
8.BB/L	.	.	16ff#\LL	.	.	.
.	.	.	16dd#\	.	.	.
.	.	.	16a\	.	.	.
(16BB/Jk	.	.	16f#\JJ	.	.	.
*Xped	*	*	*	*	*	*
[2BBB/)	.	.	8.e/L	16e\LL	.	.
.	.	.	.	16F#\	.	.
.	.	.	.	16A\	.	.
.	.	.	(16e/Jk	16e\JJ	.	.
.	.	.	8.d#/L)	16d#\LL	.	.
.	.	.	.	16F#\	.	.
.	.	.	.	16B\	.	.
.	.	.	(16d#/Jk	16d#\JJ	.	.
=132	=132	=132	=132	=132	=132	=132
!	!	!	!LO:TX:t=P:problem:mixed beam	!	!	!
8BBB/]	.	.	8.c#X/L)	16c#\LL	.	.
.	.	.	.	16E</	.	.
8r	.	.	.	16A</	.	.
.	.	.	(16c#/Jk	16c#\JJ	.	.
!	!	!	!LO:TX:t=P:problem:mixed beam	!	!	!
4r	.	.	8.B/L)	16B\LL	.	.
.	.	.	.	16D#<X/	.	.
.	.	.	.	16A</	.	.
.	.	.	[16B/Jk	16B\JJ	.	.
16r	.	.	2B/_ [2d#X [2a	2ryy	.	.
*ped	*	*	*	*	*	*
(16BB\LL	.	.	.	.	.	.
16A\	.	.	.	.	.	.
16F#\JJ	.	.	.	.	.	.
16D/LL	.	.	.	.	.	.
16BB/	.	.	.	.	.	.
16AA/	.	.	.	.	.	.
16FF#/JJ	.	.	.	.	.	.
=133	=133	=133	=133	=133	=133	=133
!!linebreak:original
*Xped	*	*	*	*	*	*
8BBB/)	.	.	16B\LL] 16d#] 16a]	2ryy	.	.
!	!	!	!	!	!LO:HP:t=cre-scen-do:ext=ud:ext=ud	!
.	.	.	16b\	.	<	.
*ped	*	*	*	*	*	*
8r	.	.	16ee#X\	.	.	.
.	.	.	16aa\JJ	.	.	.
8.BB/L	.	.	16gg#X\LL	.	.	.
.	.	.	16ee#\	.	.	.
.	.	.	16b\	.	.	.
(16BB/Jk	.	.	16g#X\JJ	.	.	.
*Xped	*	*	*	*	*	*
[2BBB/)	.	.	8.f#/L	16f#\LL	.	.
.	.	.	.	16G#X\	.	.
.	.	.	.	16B\	.	.
.	.	.	(16f#/Jk	16f#\JJ	.	.
.	.	.	8.e#X/L)	16e#\LL	.	.
.	.	.	.	16G#\	.	.
.	.	.	.	16B\	.	.
.	.	.	(16e#/Jk	16e#\JJ	.	.
=134	=134	=134	=134	=134	=134	=134
8BBB/]	.	.	8.dn/L)	16dn\LL	.	.
.	.	.	.	16F#\	.	.
8r	.	.	.	16B\	.	.
.	.	.	(16d/Jk	16d\JJ	.	.
4r	.	.	8.c#X/L)	16c#\LL	.	.
.	.	.	.	16E#X\	.	.
.	.	.	.	16B\	.	.
.	.	.	[<16c#/Jk	16c#\JJ	.	.
16r	.	.	2c#/_ [2e#X [2b	2ryy	.	.
*ped	*	*	*	*	*	*
(16C#X\LL	.	.	.	.	.	.
16B\	.	.	.	.	.	.
16G#X\JJ	.	.	.	.	.	.
16E#X/LL	.	.	.	.	.	.
16C#/	.	.	.	.	.	.
16BB/	.	.	.	.	.	.
16GG#X/JJ	.	.	.	.	.	.
*	*	*	*v	*v	*	*
=135	=135	=135	=135	=135	=135
*Xped	*	*	*	*	*
8BBB/)	.	.	16c#\LL] 16e#] 16b]	[ ff	.
.	.	.	(16een\	.	.
*ped	*	*	*	*	*
8r	.	.	16ggn\	.	.
.	.	.	16ddd#X\JJ	.	.
8.r	.	.	16ccc#X\LL	.	.
.	.	.	16gg\	.	.
.	.	.	16ee\JJ)	.	.
*clefG2	*	*	*	*	*
(16dd#X\	.	.	16r	.	.
16cc#X/LL	.	.	8.r	.	.
16gn/	.	.	.	.	.
16e/JJ)	.	.	.	.	.
16r	.	.	(>16d#X/	.	.
8.r	.	.	16c#X/LL	.	.
.	.	.	16Gn</	.	.
.	.	.	16E</JJ)	.	.
*clefF4	*	*	*	*	*
*Xped	*	*	*	*	*
(16D#X\	.	.	16ryy	.	.
=136	=136	=136	=136	=136	=136
!!linebreak:original
*^	*	*	*	*	*
8.C#X/L)	16C#\LL	.	.	1r	.	.
.	16GG\	.	.	.	.	.
.	16EE\	.	.	.	.	.
(16BB/Jk	16BB\JJ	.	.	.	.	.
8.AA#X/L)	16AA#\LL	.	.	.	.	.
.	16EE\	.	.	.	.	.
.	16CC#X\	.	.	.	.	.
(16GG/Jk	16GG\JJ	.	.	.	.	.
8.FF#/L)	16FF#\LL	.	.	.	.	.
.	16CC#\	.	.	.	.	.
.	16AAA\	.	.	.	.	.
(16GG/Jk	16GG\JJ	.	.	.	.	.
8.FF#/L)	16FF#\LL	.	.	.	.	.
.	16CC#\	.	.	.	.	.
.	16AAA\	.	.	.	.	.
(16GG/Jk	16GG\JJ	.	.	.	.	.
=137	=137	=137	=137	=137	=137	=137
!	!	!	!	!	!LO:HP:t=diminuendo	!
8.FF#/L)	16FF#\LL	.	.	1r	>	.
.	16CC#X\	.	.	.	.	.
.	16AAA#X\	.	.	.	.	.
(16GG/Jk	16GG\JJ	.	.	.	.	.
8.FF#/L)	16FF#\LL	.	.	.	.	.
.	16CC#\	.	.	.	.	.
.	16AAA#\	.	.	.	.	.
(16GG/Jk	16GG\JJ	.	.	.	.	.
8.FF#/L)	16FF#\LL	.	.	.	.	.
.	16CC#\	.	.	.	.	.
.	16AAA#\	.	.	.	.	.
(16GG/Jk	16GG\JJ	.	.	.	.	.
8.FF#/L)	16FF#\LL	.	.	.	.	.
.	16CC#\	.	.	.	.	.
.	16AAA#\	.	.	.	.	.
(16EE/Jk	16EE\JJ	.	.	.	.	.
*v	*v	*	*	*	*	*
*	*	*	*clefF4	*	*
=138	=138	=138	=138	=138	=138
8BBB/) 8DD#X	.	.	8r	.	.
8r	.	.	(16BB/LL	.	.
.	.	.	16AA#X/JJ	.	.
4r	.	.	16BB\LL	.	.
.	.	.	16C#X\	.	.
.	.	.	16D#X\	.	.
.	.	.	16G#X\JJ	.	.
2r	.	.	16F#\LL	.	.
.	.	.	16G#\	.	.
.	.	.	16A\	.	.
.	.	.	16c#X\JJ	.	.
*	*	*	*clefG2	*	*
.	.	.	16B/LL	.	.
.	.	.	16c#/	.	.
.	.	.	16d#X/	.	.
.	.	.	16g#X/JJ	.	.
=139	=139	=139	=139	=139	=139
!!linebreak:original
!	!	!	!	!LO:HP:a	!
1r	.	.	12f#/L)	>	.
.	.	.	(12B'/	.	.
.	.	.	12A#X'/J	.	.
.	.	.	12B'/L	.	.
.	.	.	12B#X'/	.	.
.	.	.	12c#X'/J	.	.
.	.	.	12c##X'/L	.	.
.	.	.	12d#X'/	.	.
.	.	.	12e'/J	.	.
.	.	.	12e#X'/L	.	.
.	.	.	12f#'/	.	.
.	.	.	12f##X'/J)	]	.
=140	=140	=140	=140	=140	=140
*^	*	*	*^	*	*
!	!	!	!	!LO:TX:a:t=cantabile e ben legato:i	!	!	!
8r	2EE\	.	.	(2g#X/	8r	.	.
8BB/L	.	.	.	.	8G#X\L	.	.
8C#X/	.	.	.	.	8A\	.	.
8Cn/J	.	.	.	.	8A#X\J	.	.
4BB/	2GG#X\	.	.	4e/	8B\L	.	.
.	.	.	.	.	8c#X\	.	.
8G#X/L	.	.	.	4b/)	8d#X\	.	.
8E/J	.	.	.	.	8e\J	.	.
=141	=141	=141	=141	=141	=141	=141	=141
1C#X	8FF#\L	.	.	(4b/	2e\	.	.
.	8CC#X\	.	.	.	.	.	.
.	8DD#X\	.	.	2a/	.	.	.
.	8EE#X\J	.	.	.	.	.	.
.	8FF#\L	.	.	.	2ryy	.	.
.	8EE#\	.	.	.	.	.	.
.	8FF#\	.	.	[4e/ [4g#X	.	.	.
.	8GG#X\J	.	.	.	.	.	.
*v	*v	*	*	*	*	*	*
*	*	*	*v	*v	*	*
=142	=142	=142	=142	=142	=142
8AA/L	.	.	4e/]) 4g#]	.	.
8GG#X/	.	.	.	.	.
8AA/	.	.	(4c#X'/ 4e 4f#	.	.
8AA#X/J	.	.	.	.	.
8BB/L	.	.	4B'/ 4e 4f#	.	.
8AA#/	.	.	.	.	.
8BB/	.	.	4A#X'/) 4e 4f#	.	.
8C#X/J	.	.	.	.	.
=143	=143	=143	=143	=143	=143
!!linebreak:original
*^	*	*	*^	*	*
8r	[2BB\	.	.	[2f#/	8B\L 8d#X	.	.
(8E/L	.	.	.	.	(>8A#X\	.	.
8D#X/	.	.	.	.	8B\	.	.
8C#X/J	.	.	.	.	8c#X\J	.	.
8D#/)	8BB\L]	.	.	8f#/L]	8B\)	.	.
8ryy	(8C#\	.	.	(8f#/	8ryy	.	.
4ryy	8BB\	.	.	8g#X/	4ryy	.	.
.	8AA\J	.	.	8a/J	.	.	.
*	*	*	*	*v	*v	*	*
=144	=144	=144	=144	=144	=144	=144
8r	2GG#X\)	.	.	4b/)	.	.
4BB/	.	.	.	.	.	.
!	!	!	!	!LO:TX:b:t=espress.:i	!	!
.	.	.	.	(4B/ 4b	.	.
4BB/	.	.	.	.	.	.
.	2EE#X\	.	.	4c#X/ 4cc#X	.	.
4BB/	.	.	.	.	.	.
.	.	.	.	[4G#X/ [4g#X	.	.
[8BB/	.	.	.	.	.	.
=145	=145	=145	=145	=145	=145	=145
8BB/]	2FF#\	.	.	8G#/L] 8g#]	.	.
4BB/	.	.	.	8A/J 8a	.	.
.	.	.	.	2d#X/) 2dd#X	.	.
4BB/	.	.	.	.	.	.
.	2FF##X\	.	.	.	.	.
4BB/	.	.	.	.	.	.
.	.	.	.	[4c#X/ [4cc#X	.	.
[8BB/	.	.	.	.	.	.
=146	=146	=146	=146	=146	=146	=146
8BB/]	2GG#X\	.	.	8c#/L] 8cc#]	.	.
4BB/	.	.	.	(8B'/ 8b	<	.
.	.	.	.	8B'/) 8b	.	.
4BB/	.	.	.	[8B/J [8b	.	.
.	2EE#X\	.	.	8B/L] 8b]	.	.
4BB/	.	.	.	(8B/ 8b	.	.
.	.	.	.	8c#X/) 8cc#X	.	.
[8BB/	.	.	.	[8G#X/J [8g#X	.	.
=147	=147	=147	=147	=147	=147	=147
8BB/]	2.FF#\	.	.	8G#/L] 8g#]	.	.
4BB/	.	.	.	(8A'/ 8a	.	.
.	.	.	.	8A'/ 8a	.	.
4BB/	.	.	.	8A'/J) 8a	[	.
.	.	.	.	(4.d#X/ 4.dd#X	>	.
4BB/	.	.	.	.	.	.
.	4FF##X\	.	.	.	.	.
8BB/	.	.	.	8c#X/) 8cc#X	]	.
=148	=148	=148	=148	=148	=148	=148
!!pagebreak:original
*	*	*	*	*^	*	*
!LO:N:vis=2	!	!	!	!	!	!	!
(8GG#X/L	2GG#\	.	.	4r	8rB	.	.
8Dn/	.	<	.	.	(8B\L	.	.
8BB/	.	.	.	(2b/	8dn\	.	.
8C#X/J	.	.	.	.	8c#X\J	.	.
8D/L	2GGn\	.	.	.	8B\L	.	.
8BB/	.	.	.	.	8d\	.	.
8C#/	.	.	.	4e#X/)	8c#\	.	.
8C##X/J)	.	.	.	.	8B\J)	.	.
=149	=149	=149	=149	=149	=149	=149	=149
(8D#X/L	[1FF#	.	.	(2g#X/	(8B\L	.	.
8C##X/	.	.	.	.	8A#X\	.	.
8D#/	.	.	.	.	8B\	.	.
8E/J	.	.	.	.	8c#X\J	.	.
8F#/L	.	.	.	4f#/)	8d\L	.	.
8D#/	.	.	.	.	8B\	.	.
8Dn/	.	.	.	4r	8A#\	.	.
8C#X/J)	.	.	.	.	8An\J)	.	.
=150	=150	=150	=150	=150	=150	=150	=150
(8BB/L	1FF#]	.	.	4r	(8G#X\L	.	.
8AA#X/	.	.	.	.	8F#\	.	.
8BB/	.	.	.	(4e/	8Gn\	.	.
8AA#/J	.	.	.	.	8F#\J	.	.
8BB/L	.	.	.	4d#X/	8G\L	.	.
8AA#/J	.	.	.	.	8F#\	.	.
4E/	.	[	.	4c#X/	8G#X\	.	.
.	.	.	.	.	8A#X\J)	.	.
*v	*v	*	*	*	*	*	*
=151	=151	=151	=151	=151	=151	=151
8BB/L) 8D#X	.	.	8B/)	8B\	.	.
*	*	*	*ped	*	*	*
(<8BBB#X/	>	.	8r	8ryy	.	.
8DD#X/	.	.	4r	4ryy	.	.
8FF#/J	.	.	.	.	.	.
8BB\L	.	.	2r	2ryy	.	.
8D#\	.	.	.	.	.	.
8F#\	.	.	.	.	.	.
*	*	*	*Xped	*	*	*
8A\J)	]]	.	.	.	.	.
=152	=152	=152	=152	=152	=152	=152
!	!	!	!LO:TX:a:t=marcato un poco:i	!	!	!
(8qEE/	.	.	.	.	.	.
(2G\)	<	.	4ryy	12r	.	.
.	.	.	.	(12A#X/L	.	.
.	.	.	.	12B/J	.	.
.	.	.	4b/	12b\L	.	.
.	.	.	.	12d#X\	.	.
.	.	.	.	12e\J	.	.
4E\	.	.	4an/	12an\L	.	.
.	.	.	.	12d#\	.	.
.	.	.	.	12e\J	.	.
4B\)	.	.	4g/	12g\L	.	.
.	.	.	.	12d#\	.	.
.	[[	.	.	12e\J	.	.
=153	=153	=153	=153	=153	=153	=153
!!linebreak:original
*^	*	*	*	*	*	*
4B/	[2AA\	>	.	(2dd/	12dd\L	.	.
.	.	.	.	.	12e\	.	.
.	.	.	.	.	12f#\J	.	.
8A/L	.	.	.	.	12g#X\L	.	.
.	.	.	.	.	12a\	.	.
8G#X/J	.	.	.	.	.	.	.
.	.	.	.	.	12b\J	.	.
.	.	.	.	.	8qdd/)	.	.
4ryy	8AA] 8A\	.	.	2ryy	12cc\L	.	.
.	.	.	.	.	12b\	.	.
.	8r	.	.	.	.	.	.
.	.	.	.	.	12cc\J	.	.
4ryy	4r	.	.	.	12ee\L	.	.
.	.	.	.	.	12cc\	.	.
.	.	]]	.	.	12a\J)	.	.
*v	*v	*	*	*	*	*	*
=154	=154	=154	=154	=154	=154	=154
(8qAA/	<	.	.	.	.	.
(2c\)	.	.	4ryy	12r	.	.
.	.	.	.	12d#X\L	.	.
.	.	.	.	12e\J	.	.
.	.	.	4ee/	12ee\L	.	.
.	.	.	.	12g#X\	.	.
.	.	.	.	12a\J	.	.
4A\	.	.	4ddn/	12ddn\L	.	.
.	.	.	.	12g#\	.	.
.	.	.	.	12a\J	.	.
4A#X\ 4e	.	.	4cc/	12cc\L	.	.
.	.	.	.	12f#\	.	.
.	[[	.	.	12gn\J	.	.
=155	=155	=155	=155	=155	=155	=155
*^	*	*	*	*	*	*
4e/	[2B\	>	.	2cc/	12cc\L	.	.
.	.	.	.	.	12f#\	.	.
.	.	.	.	.	12g\J	.	.
8d#X/L	.	.	.	.	12g#X\L	.	.
.	.	.	.	.	12a\	.	.
8c#X/J	.	.	.	.	.	.	.
.	.	.	.	.	12a#X\J	.	.
.	.	.	.	.	8qcc/	.	.
8d#/)	8B\]	]	.	2ryy	12b\L	.	.
.	.	.	.	.	12a#\	.	.
8r	8ryy	.	.	.	.	.	.
.	.	.	.	.	12b\J	.	.
4r	4ryy	.	.	.	12ff#\L	.	.
.	.	.	.	.	12dd#X\	.	.
.	.	.	.	.	12b\J	.	.
*v	*v	*	*	*	*	*	*
=156	=156	=156	=156	=156	=156	=156
(2G\	.	.	4ryy	12r	.	.
!	!	!	!LO:TX:b:t=con gran espressione:i	!	!	!
.	.	.	.	(12b-X\L	.	.
.	.	.	.	12cc#X\J	.	.
.	.	.	4bb-X/	12bb-\L	.	.
.	.	.	.	12b-\	.	.
.	.	.	.	12cc#\J	.	.
4E\	.	.	4aa/	12aa\L	.	.
.	.	.	.	12b-\	.	.
.	.	.	.	12cc#\J	.	.
4B-X\	.	.	4gg/	12gg\L	.	.
.	.	.	.	12g\	.	.
.	.	.	.	12cc#\J	.	.
=157	=157	=157	=157	=157	=157	=157
!!linebreak:original
4A\	.	.	4ff#/	12ff#\L	.	.
.	.	.	.	12a\	.	.
.	.	.	.	12cc#X\J	.	.
4G\	.	.	4ee/	12ee\L	.	.
.	.	.	.	12a\	.	.
.	.	.	.	12cc#\J	.	.
4F#\	.	.	4aa/	12aa\L	.	.
.	.	.	.	12a\	.	.
.	.	.	.	12cc#\J	.	.
4E\)	.	.	4gg/	12gg\L	.	.
.	.	.	.	12a\	.	.
.	.	.	.	12cc#\J)	.	.
=158	=158	=158	=158	=158	=158	=158
(2A\	.	.	4ryy	12r	.	.
.	.	.	.	(12ccn\L	.	.
.	.	.	.	12dd#X\J	.	.
.	.	.	4cccn/	12cccn\L	.	.
.	.	.	.	12cc\	.	.
.	.	.	.	12dd#\J	.	.
4F#\	.	.	4bb/	12bb\L	.	.
.	.	.	.	12cc\	.	.
.	.	.	.	12dd#\J	.	.
4c\)	.	.	4aa/	12aa\L	.	.
.	.	.	.	12a\	.	.
.	.	.	.	12dd#\J	.	.
=159	=159	=159	=159	=159	=159	=159
(4B\	.	.	4gg/	12gg\L	<	.
.	.	.	.	12b\	.	.
.	.	.	.	12dd#X\J	.	.
4A\	.	.	4ff#/	12ff#\L	.	.
.	.	.	.	12b\	.	.
.	.	.	.	12dd#\J	.	.
4G\	.	.	4bb/	12bb\L	.	.
.	.	.	.	12b\	.	.
.	.	.	.	12dd#\J	.	.
4F#\)	.	.	4aa/	12aa\L	.	.
.	.	.	.	12b\	.	.
.	.	.	.	12dd#\J)	[	.
=160	=160	=160	=160	=160	=160	=160
*^	*	*	*	*	*	*
!	!	!	!	!	!	!LO:DY:rj	!
8G/L	4G\	.	.	(4bb-X/	8bb-\L	p	.
8e-X/	.	.	.	.	8b-X\J 8ee-X	.	.
8E-X/	4E-\	.	.	4ddd-X/	8ddd-\L	.	.
8e-/J	.	.	.	.	8dd-X\J 8ee-	.	.
8Fn/L	4Fn\	.	.	4ccc/	8ccc\L	.	.
8e-/	.	.	.	.	8dd-X\J 8ee-	.	.
8G/	4G\	.	.	4bb-/)	8bb-\L	.	.
8e-/J	.	.	.	.	8dd-\J 8ee-	.	.
=161	=161	=161	=161	=161	=161	=161	=161
!!linebreak:original
8A-X/	2A-\	.	.	(4bb-X/	8bb-\L	.	.
4e-X/	.	.	.	.	8cc\ 8ee-X	.	.
.	.	.	.	4aa-X/	8aa-\	.	.
8e-/	.	.	.	.	8cc\J 8ee-	.	.
8B-X/L	4B-\	.	.	4gg/	8gg\L	.	.
8e-/	.	.	.	.	8g\ 8dd-X	.	.
8A-/	4A-\	.	.	4ffn/	8ff\	.	.
8e-/J	.	.	.	.	8a-X\J 8dd-	.	.
=162	=162	=162	=162	=162	=162	=162	=162
8G/L	8G\	.	.	8ee-X/)	8ee-\L	pp	.
8e-X/J	8ryy	.	.	8ryy	8b-X'\ 8dd-X	.	.
8E-X'>/L	8E-\	.	.	8ddd-X'/	8ddd-\	.	.
8d-X'>/J 8e-	8ryy	.	.	8ryy	8g'\J 8ee-	.	.
8Fn'>/L	8Fn\	.	.	8ccc'/	8ccc\L	.	.
8d-'>/ 8e-	8ryy	.	.	8ryy	8a-X'\ 8ee-	.	.
8G'>/	8G\	.	.	8bb-X'/	8bb-\	.	.
8d-'>/J 8e-	8ryy	.	.	8ryy	8b-'\J 8ee-	.	.
=163	=163	=163	=163	=163	=163	=163	=163
8A-X'>/L	8A-\	.	.	8bb-X'/	8bb-\L	.	.
8d-X'>/ 8e-X	8ryy	.	.	8ryy	8b-X\ 8ee-X'	.	.
8c'>/	8c\	.	.	8aa-X'/	8aa-\	.	.
8e-'>/J	8ryy	.	.	8ryy	8a-X\J 8ee-	.	.
8B-X'>/L	8B-\	.	.	8gg/'	8gg\L	.	.
8en'>/	8ryy	.	.	8ryy	8e\ 8dd-X	.	.
8A-'>/	8A-\	.	.	8ffn'/	8ff\	.	.
8fn'>/J	8ryy	.	.	8ryy	8a-\J 8dd-'	.	.
=164	=164	=164	=164	=164	=164	=164	=164
8G/L	8G\	.	.	8een'/	8een\L	.	.
8d-X'/ 8f-XJ	8ryy	.	.	8ryy	8b-X'\J 8dd-X	.	.
*clefG2	*	*	*	*	*	*	*
(8G/	2G\	.	.	(4ddd-X^/	8ddd-\L	.	.
4d-X/ 4f-X	.	.	.	.	8b-\ 8dd- 8ff-X	.	.
.	.	.	.	4bb-X/	8bb-\	.	.
4d-/ 4f-	.	.	.	.	8b-\ 8dd- 8ff-	.	.
.	4A-X\	.	.	4aa-X/	8aa-\	.	.
8d-/ 8f-	.	.	.	.	8a-X\J 8dd- 8ff-	.	.
=165	=165	=165	=165	=165	=165	=165	=165
*	*^	*	*	*	*	*	*
8B-X/L)	8B-\	8ryy	.	.	8gg/)	8gg\L	.	.
8d-X/ 8f-XJ	8ryy	8ryy	.	.	8ryy	8g\ 8dd-X 8ff-X'J	.	.
8A#X/	2A#\	2ryy	.	.	(4eeen^/	8eeen\L	.	.
(4en/ 4gn	.	.	.	.	.	8cc#X\ 8een 8gg	.	.
.	.	.	.	.	4ccc#X/	8ccc#\	.	.
4e/ 4g	.	.	.	.	.	8cc#\ 8ee 8gg	.	.
.	4Bn\	4Bn/	.	.	4bbn/	8bbn\	.	.
8e/ 8g	.	.	.	.	.	8bn\J 8ee 8gg	.	.
*	*v	*v	*	*	*	*	*	*
*v	*v	*	*	*	*	*	*
*	*	*	*v	*v	*	*
=166	=166	=166	=166	=166	=166
!!linebreak:original
8c#X/) 8e 8g	.	.	8a#X\) 8ee 8gg 8aa#X	.	.
8r	.	.	8r	.	.
*^	*	*	*	*	*
*ped	*	*	*	*	*	*
32a#X\LLL	4a#/	.	.	8ryy	.	.
32ee\	.	.	.	.	pp	.
32gg\	.	.	.	.	.	.
32ccc#X\JJJ	.	.	.	.	.	.
*	*	*	*	*8va	*	*
!	!	!	!	!	!LO:HP:t=crescendo sempre	!
8ryy	.	.	.	32eee\LLL	<	.
.	.	.	.	32ggg\	.	.
.	.	.	.	32cccc#X\	.	.
.	.	.	.	32eeee\JJJ	.	.
*v	*v	*	*	*	*	*
*	*	*	*X8va	*	*
*^	*	*	*	*	*
32g/LLL	4g\	.	.	8r	.	.
32cc#X/	.	.	.	.	.	.
32ee/	.	.	.	.	.	.
32aa#X/JJJ	.	.	.	.	.	.
*	*	*	*	*8va	*	*
8ryy	.	.	.	32ccc#X\LLL	.	.
.	.	.	.	32eee\	.	.
.	.	.	.	32aaa#X\	.	.
.	.	.	.	32cccc#\JJJ	.	.
*v	*v	*	*	*	*	*
*	*	*	*X8va	*	*
*^	*	*	*	*	*
32e/LLL	4e\	.	.	8r	.	.
32a#/	.	.	.	.	.	.
32cc#/	.	.	.	.	.	.
32gg/JJJ	.	.	.	.	.	.
*	*	*	*	*8va	*	*
8ryy	.	.	.	32aa#\LLL	.	.
.	.	.	.	32ccc#X\	.	.
.	.	.	.	32ggg\	.	.
.	.	.	.	32aaa#X\JJJ	.	.
*v	*v	*	*	*	*	*
*	*	*	*X8va	*	*
=167	=167	=167	=167	=167	=167
*^	*	*	*	*	*
32c#X/LLL	4c#\	.	.	8r	.	.
32g/	.	.	.	.	.	.
32a#X/	.	.	.	.	.	.
32ee/JJJ	.	.	.	.	.	.
*	*	*	*	*8va	*	*
8ryy	.	.	.	32gg\LLL	.	.
.	.	.	.	32aa#X\	.	.
.	.	.	.	32eee\	.	.
.	.	.	.	32ggg\JJJ	.	.
*v	*v	*	*	*	*	*
*	*	*	*X8va	*	*
*^	*	*	*	*	*
32A#X/LLL	4A#\	.	.	8r	.	.
32e/	.	.	.	.	.	.
32g/	.	.	.	.	.	.
32cc#X/JJJ	.	.	.	.	.	.
*	*	*	*	*8va	*	*
8ryy	.	.	.	32ee\LLL	.	.
.	.	.	.	32gg\	.	.
.	.	.	.	32ccc#X\	.	.
.	.	.	.	32eee\JJJ	.	.
*v	*v	*	*	*	*	*
*	*	*	*X8va	*	*
*^	*	*	*	*	*
32G/LLL	4G\	.	.	8r	.	.
32c#/	.	.	.	.	.	.
32e/	.	.	.	.	.	.
32a#/JJJ	.	.	.	.	.	.
*	*	*	*	*8va	*	*
8ryy	.	.	.	32cc#X\LLL	.	.
.	.	.	.	32ee\	.	.
.	.	.	.	32aa#X\	.	.
.	.	.	.	32ccc#\JJJ	.	.
*v	*v	*	*	*	*	*
*	*	*	*X8va	*	*
*^	*	*	*	*	*
32E/LLL	4E\	.	.	8r	.	.
32A#/	.	.	.	.	.	.
32c#/	.	.	.	.	.	.
32g/JJJ	.	.	.	.	.	.
*	*	*	*	*8va	*	*
8ryy	.	.	.	32a#X\LLL	.	.
.	.	.	.	32cc#\	.	.
.	.	.	.	32gg\	.	.
*Xped	*	*	*	*	*	*
.	.	.	.	32aa#\JJJ	.	.
*v	*v	*	*	*	*	*
*clefF4	*	*	*	*	*
=168	=168	=168	=168	=168	=168
!!linebreak:original
!	!	!	!	!LO:DY:rj	!
12D#X\L	.	.	8b/ 8ff# 8bb	f	.
12An\	.	.	.	.	.
*	*	*	*X8va	*	*
.	.	.	8r	.	.
12G#X\J	.	.	.	.	.
12F#\L	.	.	(4b\ 4bb	.	.
12E\	.	.	.	.	.
12D#\J	.	.	.	.	.
12E#X\L	.	.	4.cc#X\ 4.ccc#X	.	.
12G#\	.	.	.	.	.
12F#\J	.	.	.	.	.
12E#\L	.	.	.	.	.
12D#\	.	.	.	.	.
.	.	.	[8g#X\ [8gg#X	.	.
12C#X\J	.	.	.	.	.
=169	=169	=169	=169	=169	=169
12F#\L	.	.	8g#\L]) 8gg#]	.	.
12G#X\	.	.	.	.	.
.	.	.	8a\ 8aa	.	.
12F#\J	.	.	.	.	.
12E\L	.	.	8a\ 8aa	.	.
12D#X\	.	.	.	.	.
.	.	.	8a'\J 8aa	.	.
12C#X\J	.	.	.	.	.
12BB/L	.	.	(4.dd#X\ 4.ddd#X	.	.
12C#/	.	.	.	.	.
12BB/J	.	.	.	.	.
12AA/L	.	.	.	.	.
12BB/	.	.	.	.	.
.	.	.	[8cc#X\) [8ccc#X	.	.
12AA/J	.	.	.	.	.
=170	=170	=170	=170	=170	=170
12GG#X/L	.	.	8cc#\L] 8ccc#]	.	.
12BB/	.	.	.	.	.
.	.	.	8b\ 8bb	.	.
12AA/J	.	.	.	.	.
12GG#/L	.	.	8b\ 8bb	.	.
12FF#/	.	.	.	.	.
.	.	.	[8b\J [8bb	.	.
12EE/J	.	.	.	.	.
12EE#X/L	.	.	8b\L] 8bb]	.	.
12GG#/	.	.	.	.	.
.	.	.	8b\ 8bb	.	.
12FF#/J	.	.	.	.	.
12EE#/L	.	.	8cc#X\ 8ccc#X	.	.
12DD#X/	.	.	.	.	.
.	.	.	[8g#X\J [8gg#X	.	.
12CC#X/J	.	.	.	.	.
=171	=171	=171	=171	=171	=171
12FF#/L	.	.	8g#\L] 8gg#]	.	.
12GG#X/	.	.	.	.	.
.	.	.	8a\ 8aa	.	.
12FF#/J	.	.	.	.	.
12EE/L	.	.	8a\ 8aa	.	.
12DD#X/	.	.	.	.	.
.	.	.	8a\J 8aa	.	.
12CC#X/J	.	.	.	.	.
12BBB/L	.	.	(4.dd#X\ 4.ddd#X	.	.
12CC#/	.	.	.	.	.
12BBB/J	.	.	.	.	.
12AAA/L	.	.	.	.	.
12BBB/	.	.	.	.	.
.	.	.	8cc#X\) 8ccc#X	.	.
12AAA/J	.	.	.	.	.
=172	=172	=172	=172	=172	=172
*^	*	*	*^	*	*
12GGG#X/L	2ryy	.	.	8b\ 8bb	2ryy	.	.
12BBB/	.	.	.	.	.	.	.
.	.	.	.	8r	.	.	.
12EE/J	.	.	.	.	.	.	.
*	*	*	*	*8va	*	*	*
12GG#X/L	.	.	.	4bb\ 4eee 4bbb	.	sf	.
12BB/	.	.	.	.	.	.	.
*Xped	*	*	*	*X8va	*	*	*
12E/J	.	.	.	.	.	.	.
*v	*v	*	*	*	*	*	*
*	*	*	*v	*v	*	*
*^	*	*	*^	*	*
!!linebreak:original
12AA#X/L	2AA#\	.	.	4rddyy	8r	.	.
12C#X/	.	.	.	.	.	.	.
!	!	!	!	!	!	!LO:DY:rj	!
.	.	.	.	.	(8c#X\L	p	.
12E/J	.	.	.	.	.	.	.
12F#/L	.	.	.	4cc#X/	8g\	.	.
12E/	.	.	.	.	.	.	.
.	.	.	.	.	8f#\J	.	.
12C#/J	.	.	.	.	.	.	.
*	*	*	*	*v	*v	*	*
=173	=173	=173	=173	=173	=173	=173
*ped	*	*	*	*	*	*
12BB/L	2BB\	.	.	8e#X/)	.	.
12D/	.	.	.	.	.	.
.	.	.	.	8r	.	.
12G#X/J	.	.	.	.	.	.
!	!	!	!	!	!LO:DY:a	!
12B/L	.	.	.	4ddn\ 4gg#X 4dddn	sf	.
12G#/	.	.	.	.	.	.
12D/J	.	.	.	.	.	.
*	*	*	*	*^	*	*
*Xped	*	*	*	*	*	*	*
12C#X/L	2C#\	.	.	4rddyy	8r	.	.
12E/	.	.	.	.	.	.	.
.	.	.	.	.	(8en\L	p	.
12F#/J	.	.	.	.	.	.	.
12Gn/L	.	.	.	4een/	8b\	.	.
12F#/	.	.	.	.	.	.	.
.	.	.	.	.	8a#X\J)	.	.
12E/J	.	.	.	.	.	.	.
=174	=174	=174	=174	=174	=174	=174	=174
*ped	*	*	*	*	*	*	*
12D#X/L	2D#\	.	.	4rdd]	8r	.	.
12F#/	.	.	.	.	.	.	.
.	.	.	.	.	(>8f#\L	.	.
12A/J	.	.	.	.	.	.	.
!	!	!	!	!	!	!LO:HP:a	!
12B/L	.	.	.	4ff#/	8cc#X\	<	.
12A/	.	.	.	.	.	.	.
.	.	.	.	.	8b\J)	.	.
*Xped	*	*	*	*	*	*	*
12F#/J	.	.	.	.	.	.	.
!LO:TX:t=simili:b:i	!	!	!	!	!	!	!
12E/L	2E\	.	.	4rddyy	8r	.	.
12F#/	.	.	.	.	.	.	.
.	.	.	.	.	(8f#\L	.	.
12A#X/J	.	.	.	.	.	.	.
12c#X/L	.	.	.	4ff#/	8dd#X\	.	.
12A#/	.	.	.	.	.	.	.
.	.	.	.	.	8cc#\J)	.	.
12F#/J	.	.	.	.	.	.	.
=175	=175	=175	=175	=175	=175	=175	=175
12D#X/L	2D#\	.	.	4rdd]	8r	.	.
12F#/	.	.	.	.	.	.	.
.	.	.	.	.	(>8f#\L	.	.
12An/J	.	.	.	.	.	.	.
12B/L	.	.	.	4ff#/	8cc#X\	.	.
12A/	.	.	.	.	.	.	.
.	.	.	.	.	8b\J)	.	.
12F#/J	.	.	.	.	.	.	.
12C#X/L	2C#\	.	.	4rddyy	8r	.	.
12F#/	.	.	.	.	.	.	.
.	.	.	.	.	(8a\L	.	.
12A/J	.	.	.	.	.	.	.
12e/L	.	.	.	4aa/	8ff#\	.	.
12A/	.	.	.	.	.	.	.
.	.	.	.	.	8ee\J)	[	.
12F#/J	.	.	.	.	.	.	.
*v	*v	*	*	*	*	*	*
*	*	*	*v	*v	*	*
=176	=176	=176	=176	=176	=176
*ped	*	*	*tuplet	*	*
!	!	!	!LO:TUP:a:	!	!
(12BB\L	.	.	6r	.	.
12F#\	.	.	.	.	.
.	.	.	(8qdd#X/	.	.
12A\J	.	.	12fff#\)	.	.
*Xped	*	*	*Xtuplet	*	*
8d#X\)	.	.	(12eee\L	.	.
.	.	.	12ddd#X\	.	.
8r	.	.	.	.	.
.	.	.	12ccc#X\J	.	.
2r	.	.	12bb\L	.	.
.	.	.	12aa\	.	.
.	.	.	12gg#X\J	.	.
.	.	.	12ff#\L	.	.
.	.	.	12ee\	.	.
.	.	.	12dd#\J)	.	.
=177	=177	=177	=177	=177	=177
!!pagebreak:original
*ped	*	*	*tuplet	*	*
!	!	!	!LO:TUP:a:klamra łukowa	!	!
(12BB\L	.	.	6r	.	.
12F#\	.	.	.	.	.
.	.	.	(8qdd#X/	.	.
12A\J	.	.	12ddd#X\)	.	.
*Xped	*	*	*Xtuplet	*	*
8d#X\)	.	.	(12ccc#X\L	.	.
.	.	.	12bb\	.	.
8r	.	.	.	.	.
.	.	.	12aa\J	.	.
2r	.	.	12gg#X\L	.	.
.	.	.	12ff#\	.	.
.	.	.	12ee\J	.	.
.	.	.	12dd#\L	.	.
.	.	.	12cc#X\	.	.
.	.	.	12b\J)	.	.
=178	=178	=178	=178	=178	=178
*ped	*	*	*tuplet	*	*
!	!	!	!LO:TUP:a:klamra łukowa	!	!
(12BB\L	.	.	6r	.	.
12F#\	.	.	.	.	.
.	.	.	(8qb/	.	.
12A\J	.	.	(12bb\)	.	.
*Xped	*	*	*Xtuplet	*	*
8d#X\)	.	.	12aa\L	.	.
.	.	.	12gg#X\	.	.
8r	.	.	.	.	.
.	.	.	12ff#\J	.	.
6r	.	.	12ee\L	.	.
.	.	.	12dd#X\)	.	.
12c#X'\	.	.	12cc#X'\J 12ccc#X	ff	.
12B'\L	.	.	12b'\L 12bb	.	.
12A'\	.	.	12a'\ 12aa	.	.
12G#X'\J	.	.	12g#X'\J 12gg#	.	.
=179	=179	=179	=179	=179	=179
12F#'\L	.	.	12f#'/L 12ff#	.	.
12E'\	.	.	12e'/ 12ee	.	.
12D#X'\J	.	.	12d#X'/J 12dd#X	.	.
12C#X'\L	.	.	12c#X'/L 12cc#X	.	.
12BB'\	.	.	12B'/ 12b	.	.
12AA'\J	.	.	12A'/J 12a	.	.
12GG#X'\L	.	.	12G#X'/L 12g#X	.	.
12FF#'\	.	.	12F#'/ 12f#	.	.
12EE'\J	.	.	12E'/J 12e	.	.
12DD#X'\L	.	.	12D#X<'/L 12d#	.	.
12CC#X'\	.	.	12C#X<'/ 12c#	.	.
12BBB'\J	.	.	12BB<'/J 12B	.	.
=180	=180	=180	=180	=180	=180
8AAA#X\	.	.	8AA#<X/ 8A#X	.	.
8r	.	.	8r	.	.
2AAAn^>/ 2AAn	.	.	2F#^>/ 2c 2d#X	.	.
[4GGG#X^>/ [4GG#X	.	.	[4B^>/ [4dn [4e#X	.	.
=181	=181	=181	=181	=181	=181
!!linebreak:original
*	*	*	*^	*	*
4GGG#/] 4GG#]	.	.	4B/] 4d] 4e#]	2ryy	.	.
(4FFF#/ 4FF#	.	.	(4B/ 4d 4f#	.	p <	.
2EEE#X/) 2EE#X	.	.	4a/	2B\ 2c#X	.	.
.	.	.	4g#X/)	.	.	.
=182	=182	=182	=182	=182	=182	=182
!	!	!	!LO:TX:a:t=dolce:i	!	!	!
2FFF#/ 2FF#	.	.	4b:/	2A:\ 2c#X:	.	.
.	.	.	4a/	.	.	.
2AAA/ 2AA	.	.	4f#:/	2E:\ 2c#:	[	.
.	.	.	4e/	.	.	.
*	*	*	*v	*v	*	*
*	*	*	*clefF4	*	*
=183	=183	=183	=183	=183	=183
*	*	*	*^	*	*
*	*	*	*	*^	*	*
(2BBB/ 2BB	.	.	1B	(2F#/	4E\	<	.
.	.	.	.	.	4D#X\	.	.
2GGG#X/) 2GG#X	.	.	.	4Fn/	2Dn\	.	.
.	.	.	.	4E/)	.	[[	.
*	*	*	*v	*v	*v	*	*
*	*	*	*clefG2	*	*
=184	=184	=184	=184	=184	=184
*	*	*	*^	*	*
!	!	!	!	!	!LO:HP:t=crescendo e molto espress.:ext=ud	!
2AAA/ 2AA	.	.	(4dd:/	2cn:\ 2e:	<	.
.	.	.	4ccn/	.	.	.
2CC/ 2C	.	.	4a:/	2G:\ 2e-X:	.	.
.	.	.	4g/)	.	.	.
*	*	*	*v	*v	*	*
*	*	*	*clefF4	*	*
=185	=185	=185	=185	=185	=185
*	*	*	*^	*	*
*	*	*	*	*^	*	*
2DD/ 2D	.	.	2A/ [2d	4G\	2ryy	.	.
.	.	.	.	4F#\	.	.	.
2BBB/ 2BB	.	.	2d/]	4A-X/	2Fn\	.	.
.	.	.	.	4G/	.	.	.
*	*	*	*v	*v	*v	*	*
*	*	*	*clefG2	*	*
=186	=186	=186	=186	=186	=186
*	*	*	*^	*	*
2CC/ 2C	.	.	(4ffn:/	2e:\ 2g:	.	.
.	.	.	4ee/	.	.	.
2BBB-X/ 2BB-X	.	.	4dd:/	2e:\ 2g:	.	.
.	.	.	4cc/)	.	.	.
=187	=187	=187	=187	=187	=187	=187
!!linebreak:original
*	*	*	*	*^	*	*
2AAA/ 2AA	.	.	(4bn:/	1fn:	2c:\	.	.
.	.	.	4cc/	.	.	.	.
2r	.	.	4c/	.	2ryy	.	.
.	.	.	4d/)	.	.	[[	.
*	*	*	*v	*v	*v	*	*
=188	=188	=188	=188	=188	=188
!	!	!	!LO:TX:b:i:t=riten.	!LO:DY:a	!
4r	.	.	1G 1A#X 1c#X 1e	ff	.
(<4E\	.	.	.	.	.
4DD#X/	.	.	.	.	.
4EE/)	.	.	.	.	.
=189	=189	=189	=189	=189	=189
*	*	*	*^	*	*
1BBB^	.	.	(2.g^/	2A#X\ 2c#X 2e	>	.
.	.	.	.	2An\ [2B 2d#X	.	.
.	.	.	4f#/	.	]	.
=190	=190	=190	=190	=190	=190	=190
*^	*	*	*	*	*	*
8EEE/	4ryy	.	.	8G/) 8B] 8e	4ryy	.	.
8r	.	.	.	8r	.	.	.
!LO:N:vis=2	!	!	!	!LO:TX:a:t=a tempo	!	!	!
4EE/	[2.EE\	.	.	(8g/L	16g\LL	pp	.
.	.	.	.	.	16e\	.	.
.	.	.	.	8a/J	16a\	.	.
.	.	.	.	.	16B\JJ	.	.
4E/	.	.	.	8b/L	16b\LL	.	.
.	.	.	.	.	16g\	.	.
.	.	.	.	8cc#X/J	16cc#\	.	.
.	.	.	.	.	16e\JJ	.	.
4Dn/	.	.	.	8dd#X/L	16dd#\LL	.	.
.	.	.	.	.	16b\	.	.
.	.	.	.	8ee/J	16ee\	.	.
.	.	.	.	.	16g\JJ	.	.
=191	=191	=191	=191	=191	=191	=191	=191
4C/	1EE_	.	.	8ff#/L	16ff#\LL	<	.
.	.	.	.	.	16ee\	.	.
.	.	.	.	8gg/J	16gg\	.	.
.	.	.	.	.	16a\JJ	.	.
4BB/	.	.	.	8ff#/L	16ff#\LL	.	.
.	.	.	.	.	16ee\	.	.
.	.	.	.	8gg/J	16gg\	.	.
.	.	.	.	.	16b\JJ	.	.
4AA#X/	.	.	.	8ff#/L	16ff#\LL	.	.
.	.	.	.	.	16ee\	.	.
.	.	.	.	8gg/J	16gg\	[	.
.	.	.	.	.	16cc\JJ	.	.
4AAn/	.	.	.	8ff#/L	16ff#\LL	>	.
.	.	.	.	.	16dd#X\	.	.
.	.	.	.	8gg/J)	16gg\	.	.
.	.	.	.	.	16b\JJ	]	.
*	*	*	*	*v	*v	*	*
=192	=192	=192	=192	=192	=192	=192
!!linebreak:original
8GG#X/	8EE\]	.	.	8ee\	.	.
8r	8r	.	.	8r	.	.
*	*	*	*	*^	*	*
4EE/	[2.EE\	.	.	(8g#X/L	16g#\LL	p <	.
.	.	.	.	.	16e\	.	.
.	.	.	.	8a/J	16a\	.	.
.	.	.	.	.	16B\JJ	.	.
4E/	.	.	.	8b/L	16b\LL	.	.
.	.	.	.	.	16g#\	.	.
.	.	.	.	8ccn/J	16ccn\	.	.
.	.	.	.	.	16e\JJ	.	.
4D/	.	.	.	8ddn/L	16ddn\LL	.	.
.	.	.	.	.	16b\	.	.
.	.	.	.	8ee/J	16ee\	.	.
.	.	.	.	.	16g#\JJ	[[	.
=193	=193	=193	=193	=193	=193	=193	=193
!	!	!	!	!	!	!LO:HP:t=crescendo molto	!
(<4C/	1EE]	.	.	8ffn/L	16ffn\LL	<	.
.	.	.	.	.	16cc\	.	.
.	.	.	.	8gg/J	16gg\	.	.
.	.	.	.	.	16a\JJ	.	.
4BB/	.	.	.	8aa/L	16aa\LL	.	.
.	.	.	.	.	16ff\	.	.
.	.	.	.	8bb/J	16bb\	.	.
.	.	.	.	.	16cc\JJ	.	.
4AA/	.	.	.	8ccc/L	16ccc\LL	.	.
.	.	.	.	.	16aa\	.	.
.	.	.	.	8eee/J	16eee\	.	.
.	.	.	.	.	16ff\JJ	.	.
4GG/)	.	.	.	8fffn/L	16fffn\LL	.	.
.	.	.	.	.	16ccc\	.	.
.	.	.	.	8ggg/J)	16ggg\	.	.
.	.	.	.	.	16aa\JJ	.	.
*v	*v	*	*	*	*	*	*
*	*	*	*v	*v	*	*
=194	=194	=194	=194	=194	=194
*	*	*	*8va	*	*
*^	*	*	*^	*	*
!	!	!	!	!LO:TX:b:i:t=con gran espressione e sempre legato	!	!	!
4FF#/	[1EE	.	.	8aaa/L	16aaa\LL	.	.
.	.	.	.	.	16fff#X\	.	.
.	.	.	.	8bbb/J	16bbb\	.	.
.	.	.	.	.	16ccc\JJ	.	.
4AA/	.	.	.	8aaa/L	16aaa\LL	.	.
.	.	.	.	.	16fff#\	.	.
.	.	.	.	8bbb/J	16bbb\	.	.
.	.	.	.	.	16ccc\JJ	.	.
4BB/	.	.	.	8ggg/L	16ggg\LL	.	.
.	.	.	.	.	16ddd#X\	.	.
.	.	.	.	8aaa/J	16aaa\	.	.
.	.	.	.	.	16bb\JJ	.	.
4C/	.	.	.	8fff#/L	16fff#\LL	.	.
.	.	.	.	.	16ddd#\	.	.
.	.	.	.	8ggg/J	16ggg\	.	.
.	.	.	.	.	16aa\JJ	.	.
=195	=195	=195	=195	=195	=195	=195	=195
!!linebreak:original
(4BB/	2EE\]	.	.	8eee/L	16eee\LL	.	.
.	.	.	.	.	16bb\	.	.
.	.	.	.	8fff#/J	16fff#\	.	.
.	.	.	.	.	16gg\JJ	.	.
4GG/	.	.	.	8dddn/L	16dddn\LL	.	.
.	.	.	.	.	16bb\	.	.
.	.	.	.	8eee/J	16eee\	.	.
.	.	.	.	.	16gg\JJ	.	.
2EE/)	2ryy	.	.	8ccc/L	16ccc\LL	.	.
.	.	.	.	.	16gg\	.	.
.	.	.	.	8ddd/J	16ddd\	.	.
.	.	.	.	.	16ee\JJ	.	.
.	.	.	.	8bb/L	16bb\LL	.	.
.	.	.	.	.	16gg\	.	.
.	.	.	.	8ccc/J	16ccc\	.	.
.	.	.	.	.	16ee\JJ	.	.
*v	*v	*	*	*	*	*	*
*	*	*	*v	*v	*	*
*	*	*	*X8va	*	*
=196	=196	=196	=196	=196	=196
*^	*	*	*^	*	*
!	!	!	!	!	!	!LO:HP:t=diminuendo poco a poco	!
4FF#/	[1EE	.	.	8aa#X/L	16aa#\LL	>	.
.	.	.	.	.	16ff#\	.	.
.	.	.	.	8bb/J	16bb\	.	.
.	.	.	.	.	16cc#X\JJ	.	.
4AA/	.	.	.	8aan/L	16aan\LL	.	.
.	.	.	.	.	16ff#\	.	.
.	.	.	.	8bb/J	16bb\	.	.
.	.	.	.	.	16ccn\JJ	.	.
4BB/	.	.	.	8gg/L	16gg\LL	.	.
.	.	.	.	.	16dd#X\	.	.
.	.	.	.	8aa/J	16aa\	.	.
.	.	.	.	.	16b\JJ	.	.
4C/	.	.	.	8ff#/L	16ff#\LL	.	.
.	.	.	.	.	16dd#\	.	.
.	.	.	.	8gg/J	16gg\	.	.
.	.	.	.	.	16a\JJ	.	.
=197	=197	=197	=197	=197	=197	=197	=197
(4BB/	2EE\]	.	.	8ee/L	16ee\LL	.	.
.	.	.	.	.	16b\	.	.
.	.	.	.	8ff#/J	16ff#\	.	.
.	.	.	.	.	16g\JJ	.	.
4GG/	.	.	.	8ddn/L	16ddn\LL	.	.
.	.	.	.	.	16b\	.	.
.	.	.	.	8ee/J	16ee\	.	.
.	.	.	.	.	16g\JJ	.	.
2EE/)	2EE\	.	.	8cc/L	16cc\LL	.	.
.	.	.	.	.	16g\	.	.
.	.	.	.	8dd/J	16dd\	.	.
.	.	.	.	.	16e\JJ	.	.
.	.	.	.	8b/L	16b\LL	.	.
.	.	.	.	.	16g\	.	.
.	.	.	.	8cc/J	16cc\	.	.
.	.	.	.	.	16e\JJ	.	.
=198	=198	=198	=198	=198	=198	=198	=198
!!linebreak:original
(4FF#/	[1EE	.	.	8a#X/L	16a#\LL	.	.
.	.	.	.	.	16f#\	.	.
.	.	.	.	8b/J	16b\	.	.
.	.	.	.	.	16c#X\JJ	.	.
4AA/	.	.	.	8an/L	16an\LL	.	.
.	.	.	.	.	16f#\	.	.
.	.	.	.	8b/J	16b\	.	.
.	.	.	.	.	16cn\JJ	.	.
4BB/	.	.	.	8g/L	16g\LL	.	.
.	.	.	.	.	16d#X\	.	.
.	.	.	.	8a/J	16a\	.	.
.	.	.	.	.	16B\JJ	.	.
4C/)	.	.	.	8f#/L	16f#\LL	.	.
.	.	.	.	.	16d#\	.	.
.	.	.	.	8g/J	16g\	.	.
.	.	.	.	.	16A\JJ	.	.
=199	=199	=199	=199	=199	=199	=199	=199
(4BB/	2EE\]	.	.	8e/L	16e\LL	.	.
.	.	.	.	.	16B\	.	.
.	.	.	.	8f#/J	16f#\	.	.
.	.	.	.	.	16G\JJ	.	.
4GG/	.	.	.	8dn/L	16dn\LL	.	.
.	.	.	.	.	16B\	.	.
.	.	.	.	8e/J	16e\	.	.
.	.	.	.	.	16G\JJ	.	.
2EE\)	2ryy	.	.	8c/L	16c\LL	.	.
.	.	.	.	.	16G\	.	.
.	.	.	.	8d/J	16d\	.	.
.	.	.	.	.	16E\JJ	.	.
.	.	.	.	8B</L	16B<\LL	.	.
.	.	.	.	.	16G<\	.	.
.	.	.	.	8c</J	16c<\	.	.
.	.	.	.	.	16E<\JJ	.	.
*v	*v	*	*	*	*	*	*
*	*	*	*clefF4	*	*	*
=200	=200	=200	=200	=200	=200	=200
!	!	!	!LO:TX:b:i:t=morendo	!	!	!
2FF#/	.	.	8A#X/L	16A#\LL	.	.
.	.	.	.	16F#\	.	.
.	.	.	8B/J	16B\	.	.
.	.	.	.	16C#X\JJ	.	.
.	.	.	8An/L	16An\LL	.	.
.	.	.	.	16F#\	.	.
.	.	.	8B/J	16B\	.	.
.	.	.	.	16Cn\JJ	.	.
2BBB/	.	.	8G/L	16G\LL	.	.
.	.	.	.	16D#X\	.	.
.	.	.	8A/J	16A\	.	.
.	.	.	.	16BB\JJ	.	.
.	.	.	8F#/L	16F#\LL	.	.
.	.	.	.	16D#\	.	.
.	.	.	8G/J	16G\	.	.
.	.	.	.	16BB\JJ	.	.
*	*	*	*v	*v	*	*
=201	=201	=201	=201	=201	=201
!!linebreak:original
8EE/	.	.	8E\	.	.
8r	.	.	(16C/LL	pp	.
.	.	.	16BB/JJ	.	.
8r	.	.	16GG/LL	.	.
.	.	.	16EE/	.	.
(16CC/LL	.	.	16C/	.	.
16BBB/JJ	.	.	16BB/JJ	.	.
16GGG/LL	.	.	16GG/LL	.	.
16EEE/	.	.	16EE/	.	.
16CC/	.	.	16C/	.	.
16BBB/JJ	.	.	16BB/JJ	.	.
16GGG/LL	.	.	16GG/LL	.	.
16EEE/	.	.	16EE/	.	.
16CC/	.	.	16C/	.	.
16BBB/JJ)	.	.	16BB/JJ	.	.
=202	=202	=202	=202	=202	=202
(16GGG/LL	.	.	16GG/LL)	>	.
16EEE/	.	.	(16EE/	.	.
16CC/	.	.	16C/	.	.
16BBB/JJ	.	.	16BB/JJ	.	.
16GGG/LL	.	.	16GG/LL	.	.
16EEE/	.	.	16EE/	.	.
16CC/	.	.	16C/	.	.
16BBB/JJ	.	.	16BB/JJ	.	.
16GGG/LL	.	.	16GG/LL	.	.
16EEE/	.	.	16EE/	.	.
16CC/	.	.	16C/	.	.
16BBB/JJ	.	.	16BB/JJ	.	.
*tuplet	*	*	*tuplet	*	*
!LO:TUP:b	!	!	!LO:TUP:b	!	!
20GGG/LL	.	.	20GG/LL	.	.
20EEE/	.	.	20EE/	.	.
20CC/	.	.	20C/	.	.
20BBB/	.	.	20BB/	.	.
20GGG/JJ	.	.	20GG/JJ	]	.
=203	=203	=203	=203	=203	=203
4EEE/)	.	.	4EE/)	.	.
4r	.	.	4r	.	.
*	*	*	*clefG2	*	*
4BBB/ 4FF# 4BB	.	.	4b\ 4dd#X 4ff# 4bb	ff	.
4r	.	.	4r	.	.
=204	=204	=204	=204	=204	=204
4EE/ 4BB 4E	.	.	4e/ 4g 4b 4ee	.	.
4r	.	.	4r	.	.
2r	.	.	2r	.	.
==	==	==	==	==	==
*-	*-	*-	*-	*-	*-
!!!system-decoration: {(s1,s2)}
!!!ENC: Anastazja Marusiak
!!!END: 2022-03-10
!!!AIN: 1 piano
!!!ENC: Krzysztof Stępień
!!!END: 2022-03-14
!!!RDF**kern: > = above
!!!RDF**kern: < = below
